( pcb2gcode 2.1.0 )
( Software-independent Gcode )

G94 ( Millimeters per minute feed rate. )
G21 ( Units == Millimeters. )

G90 ( Absolute coordinates. )
G00 S10000 ( RPM spindle speed. )
G64 P0.01000 ( set maximum deviation from commanded toolpath )
G01 F600.00000 ( Feedrate. )


G00 Z10.00000 (Retract to tool change height)
T0
M5      (Spindle stop.)
G04 P1.00000 (Wait for spindle to stop)
(MSG, Change tool bit to mill diameter 0.20000mm)
M6      (Tool change.)
M0      (Temporary machine stop.)
M3 ( Spindle on clockwise. )
G04 P1.00000 (Wait for spindle to get up to speed)
G04 P0 ( dwell for no time -- G64 should not smooth over this point )
G00 Z5.00000 ( retract )

G00 X0.09997 Y0.37641 ( rapid move to begin. )
G01 F300.00000
( Mill infeed pass 1/1 )
G01 Z-0.05000
G04 P0 ( dwell for no time -- G64 should not smooth over this point )
G01 F600.00000
G01 X0.09997 Y0.37641
G01 X0.09997 Y27.07738
G01 X0.09997 Y30.85789
G01 X0.10045 Y30.86767
G01 X0.10291 Y30.89246
G01 X0.10434 Y30.90216
G01 X0.10672 Y30.91168
G01 X0.11396 Y30.93551
G01 X0.12146 Y30.95362
G01 X0.13319 Y30.97557
G01 X0.13825 Y30.98400
G01 X0.14409 Y30.99187
G01 X0.15989 Y31.01113
G01 X0.17373 Y31.02497
G01 X0.19298 Y31.04077
G01 X0.20086 Y31.04661
G01 X0.20929 Y31.05166
G01 X0.23124 Y31.06340
G01 X0.24935 Y31.07089
G01 X0.27317 Y31.07813
G01 X0.28270 Y31.08052
G01 X0.29240 Y31.08194
G01 X0.31719 Y31.08440
G01 X0.32699 Y31.08489
G01 X47.24001 Y31.08489
G01 X47.24872 Y31.08448
G01 X47.27082 Y31.08255
G01 X47.28801 Y31.07953
G01 X47.30942 Y31.07379
G01 X47.32581 Y31.06779
G01 X47.34590 Y31.05842
G01 X47.36101 Y31.04968
G01 X47.37917 Y31.03693
G01 X47.39253 Y31.02570
G01 X47.40818 Y31.01001
G01 X47.41938 Y30.99662
G01 X47.43208 Y30.97844
G01 X47.44079 Y30.96330
G01 X47.45012 Y30.94321
G01 X47.45606 Y30.92677
G01 X47.46175 Y30.90536
G01 X47.46475 Y30.88816
G01 X47.46662 Y30.86607
G01 X47.46698 Y30.85733
G01 X47.39393 Y0.32648
G01 X47.39345 Y0.31670
G01 X47.39093 Y0.29193
G01 X47.38707 Y0.27273
G01 X47.37981 Y0.24896
G01 X47.37226 Y0.23087
G01 X47.36050 Y0.20895
G01 X47.34958 Y0.19270
G01 X47.33378 Y0.17349
G01 X47.31991 Y0.15965
G01 X47.30064 Y0.14390
G01 X47.28435 Y0.13306
G01 X47.26238 Y0.12137
G01 X47.24427 Y0.11388
G01 X47.22047 Y0.10672
G01 X47.20125 Y0.10293
G01 X47.17651 Y0.10049
G01 X47.16670 Y0.10001
G01 X0.32674 Y0.14941
G01 X0.31694 Y0.14992
G01 X0.29220 Y0.15239
G01 X0.27297 Y0.15622
G01 X0.24917 Y0.16346
G01 X0.23108 Y0.17098
G01 X0.20914 Y0.18271
G01 X0.19286 Y0.19361
G01 X0.17365 Y0.20941
G01 X0.15981 Y0.22328
G01 X0.14404 Y0.24250
G01 X0.13314 Y0.25881
G01 X0.12143 Y0.28076
G01 X0.11394 Y0.29884
G01 X0.10672 Y0.32267
G01 X0.10289 Y0.34187
G01 X0.10045 Y0.36663
G01 X0.09997 Y0.37641
G04 P0 ( dwell for no time -- G64 should not smooth over this point )
G00 Z5.00000 ( retract )

G00 X3.38495 Y5.19599 ( rapid move to begin. )
G01 F300.00000
( Mill infeed pass 1/1 )
G01 Z-0.05000
G04 P0 ( dwell for no time -- G64 should not smooth over this point )
G01 F600.00000
G01 X3.38495 Y5.19599
G01 X3.38495 Y5.41417
G01 X3.42755 Y5.62827
G01 X3.51106 Y5.82992
G01 X3.63232 Y6.01138
G01 X3.78665 Y6.16571
G01 X3.85909 Y6.21412
G01 X3.86570 Y6.21892
G01 X3.88195 Y6.23182
G01 X3.89389 Y6.24300
G01 X3.90781 Y6.25839
G01 X3.91777 Y6.27135
G01 X3.92902 Y6.28880
G01 X3.93671 Y6.30322
G01 X3.94497 Y6.32225
G01 X3.95023 Y6.33774
G01 X3.95528 Y6.35786
G01 X3.95795 Y6.37399
G01 X3.95963 Y6.39469
G01 X3.95998 Y6.40287
G01 X3.95998 Y6.69576
G01 X3.95985 Y6.70063
G01 X3.95924 Y6.71300
G01 X3.95889 Y6.71788
G01 X3.95739 Y6.73302
G01 X3.96768 Y6.83756
G01 X3.99816 Y6.93797
G01 X4.04766 Y7.03060
G01 X4.11434 Y7.11183
G01 X4.12612 Y7.12154
G01 X4.12981 Y7.12469
G01 X4.13895 Y7.13302
G01 X4.14248 Y7.13637
G01 X4.63897 Y7.63284
G01 X4.64487 Y7.63926
G01 X4.65909 Y7.65623
G01 X4.66910 Y7.67051
G01 X4.68017 Y7.68968
G01 X4.68754 Y7.70548
G01 X4.69511 Y7.72628
G01 X4.69960 Y7.74312
G01 X4.70346 Y7.76492
G01 X4.70496 Y7.78229
G01 X4.70496 Y7.80442
G01 X4.70346 Y7.82179
G01 X4.69960 Y7.84358
G01 X4.69511 Y7.86042
G01 X4.68754 Y7.88122
G01 X4.68017 Y7.89702
G01 X4.66910 Y7.91620
G01 X4.65909 Y7.93048
G01 X4.64487 Y7.94744
G01 X4.63897 Y7.95387
G01 X4.46366 Y8.12915
G01 X4.33143 Y8.32705
G01 X4.24040 Y8.54686
G01 X4.19399 Y8.78021
G01 X4.19399 Y9.01821
G01 X4.24040 Y9.25158
G01 X4.33143 Y9.47144
G01 X4.46366 Y9.66928
G01 X4.63189 Y9.83753
G01 X4.82975 Y9.96971
G01 X5.04962 Y10.06080
G01 X5.28302 Y10.10720
G01 X5.52094 Y10.10720
G01 X5.75434 Y10.06080
G01 X5.97418 Y9.96974
G01 X6.17202 Y9.83753
G01 X6.34029 Y9.66926
G01 X6.48324 Y9.45534
G01 X6.48908 Y9.44746
G01 X6.50488 Y9.42821
G01 X6.51875 Y9.41434
G01 X6.53798 Y9.39857
G01 X6.55429 Y9.38767
G01 X6.57623 Y9.37594
G01 X6.59434 Y9.36845
G01 X6.61817 Y9.36121
G01 X6.63739 Y9.35740
G01 X6.66219 Y9.35493
G01 X6.68177 Y9.35493
G01 X6.70656 Y9.35740
G01 X6.72579 Y9.36121
G01 X6.74961 Y9.36845
G01 X6.76772 Y9.37594
G01 X6.78967 Y9.38767
G01 X6.80597 Y9.39857
G01 X6.82520 Y9.41434
G01 X6.83907 Y9.42821
G01 X6.85487 Y9.44746
G01 X6.86071 Y9.45534
G01 X7.00366 Y9.66926
G01 X7.17191 Y9.83751
G01 X7.36978 Y9.96974
G01 X7.58962 Y10.06080
G01 X7.82302 Y10.10720
G01 X8.06094 Y10.10720
G01 X8.29434 Y10.06080
G01 X8.51418 Y9.96974
G01 X8.71202 Y9.83753
G01 X8.88027 Y9.66928
G01 X9.02324 Y9.45534
G01 X9.02908 Y9.44746
G01 X9.04488 Y9.42821
G01 X9.05875 Y9.41434
G01 X9.07798 Y9.39857
G01 X9.09429 Y9.38767
G01 X9.11623 Y9.37594
G01 X9.13434 Y9.36845
G01 X9.15817 Y9.36121
G01 X9.17740 Y9.35740
G01 X9.20219 Y9.35493
G01 X9.22177 Y9.35493
G01 X9.24656 Y9.35740
G01 X9.26579 Y9.36121
G01 X9.28961 Y9.36845
G01 X9.30772 Y9.37594
G01 X9.32967 Y9.38767
G01 X9.34597 Y9.39857
G01 X9.36520 Y9.41434
G01 X9.37907 Y9.42821
G01 X9.39487 Y9.44746
G01 X9.40071 Y9.45534
G01 X9.54369 Y9.66928
G01 X9.71191 Y9.83751
G01 X9.90978 Y9.96974
G01 X10.12962 Y10.06080
G01 X10.36302 Y10.10720
G01 X10.60094 Y10.10720
G01 X10.83434 Y10.06080
G01 X11.05418 Y9.96974
G01 X11.25202 Y9.83753
G01 X11.42029 Y9.66926
G01 X11.56324 Y9.45534
G01 X11.56908 Y9.44746
G01 X11.58488 Y9.42821
G01 X11.59875 Y9.41434
G01 X11.61798 Y9.39857
G01 X11.63429 Y9.38767
G01 X11.65623 Y9.37594
G01 X11.67434 Y9.36845
G01 X11.69817 Y9.36121
G01 X11.71740 Y9.35740
G01 X11.74219 Y9.35493
G01 X11.76177 Y9.35493
G01 X11.78656 Y9.35740
G01 X11.80579 Y9.36121
G01 X11.82961 Y9.36845
G01 X11.84772 Y9.37594
G01 X11.86967 Y9.38767
G01 X11.88597 Y9.39857
G01 X11.90520 Y9.41434
G01 X11.91907 Y9.42821
G01 X11.93487 Y9.44746
G01 X11.94071 Y9.45534
G01 X12.08366 Y9.66926
G01 X12.25194 Y9.83753
G01 X12.44978 Y9.96974
G01 X12.66962 Y10.06080
G01 X12.90302 Y10.10720
G01 X13.14094 Y10.10720
G01 X13.37434 Y10.06080
G01 X13.59418 Y9.96974
G01 X13.79202 Y9.83753
G01 X13.96029 Y9.66926
G01 X14.10324 Y9.45534
G01 X14.10908 Y9.44746
G01 X14.12488 Y9.42821
G01 X14.13875 Y9.41434
G01 X14.15798 Y9.39857
G01 X14.17429 Y9.38767
G01 X14.19623 Y9.37594
G01 X14.21434 Y9.36845
G01 X14.23817 Y9.36121
G01 X14.25740 Y9.35740
G01 X14.28219 Y9.35493
G01 X14.30177 Y9.35493
G01 X14.32656 Y9.35740
G01 X14.34579 Y9.36121
G01 X14.36961 Y9.36845
G01 X14.38772 Y9.37594
G01 X14.40967 Y9.38767
G01 X14.42597 Y9.39857
G01 X14.44520 Y9.41434
G01 X14.45907 Y9.42821
G01 X14.47487 Y9.44746
G01 X14.48071 Y9.45534
G01 X14.62366 Y9.66926
G01 X14.79194 Y9.83753
G01 X14.98975 Y9.96974
G01 X15.20962 Y10.06080
G01 X15.44302 Y10.10720
G01 X15.68094 Y10.10720
G01 X15.91434 Y10.06080
G01 X16.13418 Y9.96974
G01 X16.33202 Y9.83753
G01 X16.50029 Y9.66926
G01 X16.64324 Y9.45534
G01 X16.64908 Y9.44746
G01 X16.66488 Y9.42821
G01 X16.67875 Y9.41434
G01 X16.69798 Y9.39857
G01 X16.71429 Y9.38767
G01 X16.73623 Y9.37594
G01 X16.75434 Y9.36845
G01 X16.77817 Y9.36121
G01 X16.79739 Y9.35740
G01 X16.82219 Y9.35493
G01 X16.84177 Y9.35493
G01 X16.86656 Y9.35740
G01 X16.88579 Y9.36121
G01 X16.90961 Y9.36845
G01 X16.92772 Y9.37594
G01 X16.94967 Y9.38767
G01 X16.96597 Y9.39857
G01 X16.98520 Y9.41434
G01 X16.99907 Y9.42821
G01 X17.01487 Y9.44746
G01 X17.02071 Y9.45534
G01 X17.16366 Y9.66928
G01 X17.24649 Y9.75209
G01 X17.25307 Y9.75935
G01 X17.26887 Y9.77860
G01 X17.27977 Y9.79491
G01 X17.29150 Y9.81686
G01 X17.29569 Y9.82572
G01 X17.29899 Y9.83497
G01 X17.30623 Y9.85879
G01 X17.30862 Y9.86832
G01 X17.31004 Y9.87802
G01 X17.31251 Y9.90281
G01 X17.31299 Y9.91262
G01 X17.31299 Y11.38932
G01 X17.31286 Y11.39422
G01 X17.31225 Y11.40669
G01 X17.31187 Y11.41162
G01 X17.30915 Y11.43923
G01 X17.32439 Y11.59389
G01 X17.36950 Y11.74263
G01 X17.44278 Y11.87969
G01 X17.54136 Y11.99981
G01 X17.56282 Y12.01741
G01 X17.56656 Y12.02064
G01 X17.57580 Y12.02902
G01 X17.57936 Y12.03240
G01 X20.50165 Y14.95472
G01 X20.50811 Y14.96183
G01 X20.52358 Y14.98060
G01 X20.53429 Y14.99648
G01 X20.54590 Y15.01786
G01 X20.55339 Y15.03549
G01 X20.56071 Y15.05868
G01 X20.56470 Y15.07743
G01 X20.56747 Y15.10161
G01 X20.56782 Y15.12076
G01 X20.56592 Y15.14502
G01 X20.56259 Y15.16389
G01 X20.55611 Y15.18733
G01 X20.54925 Y15.20521
G01 X20.53841 Y15.22701
G01 X20.52827 Y15.24326
G01 X20.51349 Y15.26257
G01 X20.50044 Y15.27659
G01 X20.48222 Y15.29274
G01 X20.46673 Y15.30402
G01 X20.44577 Y15.31639
G01 X20.42843 Y15.32449
G01 X20.40549 Y15.33264
G01 X20.39632 Y15.33541
G01 X20.23285 Y15.37638
G01 X20.08959 Y15.44418
G01 X20.08461 Y15.46119
G01 X20.31004 Y15.68664
G01 X20.35411 Y15.66704
G01 X20.36386 Y15.66328
G01 X20.37399 Y15.66056
G01 X20.53757 Y15.62579
G01 X20.54791 Y15.62416
G01 X20.55837 Y15.62360
G01 X20.72561 Y15.62360
G01 X20.73607 Y15.62416
G01 X20.74641 Y15.62579
G01 X20.90999 Y15.66056
G01 X20.92009 Y15.66328
G01 X20.92987 Y15.66704
G01 X21.08265 Y15.73506
G01 X21.09198 Y15.73981
G01 X21.10076 Y15.74550
G01 X21.23607 Y15.84382
G01 X21.24420 Y15.85040
G01 X21.25162 Y15.85779
G01 X21.36353 Y15.98210
G01 X21.37011 Y15.99023
G01 X21.37580 Y15.99899
G01 X21.45944 Y16.14384
G01 X21.46419 Y16.15317
G01 X21.46792 Y16.16295
G01 X21.51961 Y16.32200
G01 X21.52233 Y16.33211
G01 X21.52395 Y16.34245
G01 X21.54143 Y16.50877
G01 X21.54199 Y16.51923
G01 X21.54143 Y16.52967
G01 X21.52395 Y16.69602
G01 X21.52233 Y16.70635
G01 X21.51961 Y16.71646
G01 X21.47554 Y16.85212
G01 X21.69998 Y17.07658
G01 X21.72639 Y17.06881
G01 X21.72878 Y17.06520
G01 X21.74054 Y17.05065
G01 X21.75710 Y17.03361
G01 X21.77135 Y17.02149
G01 X21.79083 Y17.00785
G01 X21.80709 Y16.99858
G01 X21.82875 Y16.98880
G01 X21.84646 Y16.98273
G01 X21.86957 Y16.97717
G01 X21.88809 Y16.97450
G01 X21.91181 Y16.97333
G01 X21.93051 Y16.97417
G01 X21.95405 Y16.97745
G01 X21.97226 Y16.98177
G01 X21.99479 Y16.98936
G01 X22.01189 Y16.99698
G01 X22.03259 Y17.00864
G01 X22.04796 Y17.01933
G01 X22.06612 Y17.03465
G01 X22.07925 Y17.04798
G01 X22.09423 Y17.06642
G01 X22.09980 Y17.07397
G01 X22.24369 Y17.28928
G01 X22.32649 Y17.37209
G01 X22.33307 Y17.37935
G01 X22.34887 Y17.39860
G01 X22.35977 Y17.41491
G01 X22.37150 Y17.43686
G01 X22.37569 Y17.44572
G01 X22.37899 Y17.45497
G01 X22.38623 Y17.47879
G01 X22.38862 Y17.48832
G01 X22.39004 Y17.49802
G01 X22.39251 Y17.52281
G01 X22.39299 Y17.53262
G01 X22.39299 Y18.48318
G01 X22.39286 Y18.48809
G01 X22.39225 Y18.50056
G01 X22.39187 Y18.50549
G01 X22.38915 Y18.53312
G01 X22.40439 Y18.68776
G01 X22.44953 Y18.83650
G01 X22.52278 Y18.97356
G01 X22.62136 Y19.09367
G01 X22.64282 Y19.11128
G01 X22.64656 Y19.11450
G01 X22.65580 Y19.12288
G01 X22.65936 Y19.12626
G01 X24.14805 Y20.61501
G01 X24.15463 Y20.62227
G01 X24.17046 Y20.64152
G01 X24.18135 Y20.65783
G01 X24.19309 Y20.67978
G01 X24.20058 Y20.69789
G01 X24.20782 Y20.72171
G01 X24.21160 Y20.74094
G01 X24.21407 Y20.76573
G01 X24.21455 Y20.77553
G01 X24.21455 Y20.89265
G01 X24.26101 Y21.12605
G01 X24.35204 Y21.34587
G01 X24.48425 Y21.54376
G01 X24.56705 Y21.62654
G01 X24.57239 Y21.63230
G01 X24.58534 Y21.64747
G01 X24.59456 Y21.66017
G01 X24.60497 Y21.67716
G01 X24.61211 Y21.69113
G01 X24.61973 Y21.70954
G01 X24.62458 Y21.72448
G01 X24.62923 Y21.74386
G01 X24.63169 Y21.75935
G01 X24.63324 Y21.77924
G01 X24.63357 Y21.78709
G01 X24.63357 Y26.14240
G01 X24.63312 Y26.15172
G01 X24.63091 Y26.17542
G01 X24.62740 Y26.19381
G01 X24.62082 Y26.21665
G01 X24.61397 Y26.23405
G01 X24.60322 Y26.25525
G01 X24.59324 Y26.27108
G01 X24.57876 Y26.28993
G01 X24.56601 Y26.30362
G01 X24.54826 Y26.31941
G01 X24.53317 Y26.33051
G01 X24.51277 Y26.34273
G01 X24.49588 Y26.35081
G01 X24.47355 Y26.35901
G01 X24.45550 Y26.36381
G01 X24.43205 Y26.36768
G01 X24.41338 Y26.36905
G01 X24.38958 Y26.36851
G01 X24.37099 Y26.36630
G01 X24.34777 Y26.36138
G01 X24.32992 Y26.35579
G01 X24.30800 Y26.34657
G01 X24.29954 Y26.34258
G01 X24.23406 Y26.30755
G01 X24.00467 Y26.22556
G01 X23.76931 Y26.19066
G01 X23.53170 Y26.20237
G01 X23.30084 Y26.26026
G01 X23.15761 Y26.32805
G01 X23.15260 Y26.34509
G01 X23.37803 Y26.57052
G01 X23.42210 Y26.55086
G01 X23.43188 Y26.54715
G01 X23.44198 Y26.54441
G01 X23.60556 Y26.50966
G01 X23.61592 Y26.50801
G01 X23.62634 Y26.50748
G01 X23.79362 Y26.50748
G01 X23.80404 Y26.50801
G01 X23.81440 Y26.50966
G01 X23.97800 Y26.54441
G01 X23.98811 Y26.54715
G01 X23.99784 Y26.55086
G01 X24.15067 Y26.61891
G01 X24.15999 Y26.62368
G01 X24.16875 Y26.62937
G01 X24.30406 Y26.72767
G01 X24.31221 Y26.73425
G01 X24.31958 Y26.74166
G01 X24.43152 Y26.86595
G01 X24.43810 Y26.87407
G01 X24.44381 Y26.88286
G01 X24.52743 Y27.02767
G01 X24.53218 Y27.03704
G01 X24.53594 Y27.04679
G01 X24.58760 Y27.20585
G01 X24.59032 Y27.21598
G01 X24.59197 Y27.22632
G01 X24.60944 Y27.39264
G01 X24.60998 Y27.40311
G01 X24.60944 Y27.41355
G01 X24.59197 Y27.57986
G01 X24.59032 Y27.59020
G01 X24.58760 Y27.60034
G01 X24.54353 Y27.73600
G01 X24.77691 Y27.96937
G01 X24.78211 Y27.96935
G01 X24.80058 Y27.97095
G01 X24.82374 Y27.97514
G01 X24.84160 Y27.98009
G01 X24.86360 Y27.98850
G01 X24.88021 Y27.99668
G01 X24.90027 Y28.00897
G01 X24.91511 Y28.02007
G01 X24.93258 Y28.03587
G01 X24.94511 Y28.04954
G01 X24.95933 Y28.06828
G01 X24.96913 Y28.08400
G01 X24.97967 Y28.10506
G01 X24.98638 Y28.12233
G01 X24.99286 Y28.14496
G01 X24.99631 Y28.16353
G01 X24.99845 Y28.18748
G01 X25.00787 Y28.28304
G01 X25.03121 Y28.35997
G01 X25.06911 Y28.43087
G01 X25.12009 Y28.49299
G01 X25.18221 Y28.54397
G01 X25.25308 Y28.58184
G01 X25.33002 Y28.60519
G01 X25.42110 Y28.61415
G01 X26.99882 Y28.61415
G01 X27.08993 Y28.60519
G01 X27.16687 Y28.58184
G01 X27.23773 Y28.54397
G01 X27.29986 Y28.49299
G01 X27.35084 Y28.43087
G01 X27.38874 Y28.35997
G01 X27.41208 Y28.28304
G01 X27.42105 Y28.19193
G01 X27.42105 Y26.61421
G01 X27.41208 Y26.52310
G01 X27.38874 Y26.44619
G01 X27.35084 Y26.37530
G01 X27.29989 Y26.31317
G01 X27.23773 Y26.26216
G01 X27.16687 Y26.22429
G01 X27.08998 Y26.20095
G01 X26.99887 Y26.19201
G01 X26.43857 Y26.19201
G01 X26.42880 Y26.19153
G01 X26.40401 Y26.18906
G01 X26.39430 Y26.18764
G01 X26.38478 Y26.18525
G01 X26.36095 Y26.17801
G01 X26.34284 Y26.17052
G01 X26.32090 Y26.15879
G01 X26.31246 Y26.15371
G01 X26.30459 Y26.14789
G01 X26.28534 Y26.13209
G01 X26.27149 Y26.11825
G01 X26.25569 Y26.09899
G01 X26.24985 Y26.09112
G01 X26.24480 Y26.08269
G01 X26.23306 Y26.06074
G01 X26.22557 Y26.04263
G01 X26.21833 Y26.01881
G01 X26.21594 Y26.00926
G01 X26.21452 Y25.99958
G01 X26.21206 Y25.97479
G01 X26.21157 Y25.96501
G01 X26.21157 Y21.78709
G01 X26.21190 Y21.77924
G01 X26.21345 Y21.75935
G01 X26.21592 Y21.74386
G01 X26.22057 Y21.72448
G01 X26.22542 Y21.70957
G01 X26.23304 Y21.69115
G01 X26.24018 Y21.67716
G01 X26.25059 Y21.66017
G01 X26.25981 Y21.64749
G01 X26.27274 Y21.63233
G01 X26.27807 Y21.62656
G01 X26.36090 Y21.54373
G01 X26.38623 Y21.50581
G01 X26.39164 Y21.49847
G01 X26.40616 Y21.48049
G01 X26.41886 Y21.46743
G01 X26.43642 Y21.45239
G01 X26.45127 Y21.44185
G01 X26.47126 Y21.43025
G01 X26.48777 Y21.42257
G01 X26.50957 Y21.41478
G01 X26.52720 Y21.41023
G01 X26.55000 Y21.40652
G01 X26.56817 Y21.40525
G01 X26.59130 Y21.40573
G01 X26.60939 Y21.40777
G01 X26.63205 Y21.41244
G01 X26.64947 Y21.41772
G01 X26.67088 Y21.42641
G01 X26.68706 Y21.43477
G01 X26.70654 Y21.44721
G01 X26.72095 Y21.45836
G01 X26.73786 Y21.47414
G01 X26.75000 Y21.48770
G01 X26.76377 Y21.50629
G01 X26.77324 Y21.52184
G01 X26.78343 Y21.54259
G01 X26.78991 Y21.55961
G01 X26.79616 Y21.58186
G01 X26.79946 Y21.59976
G01 X26.80157 Y21.62280
G01 X26.80200 Y21.63192
G01 X26.80200 Y24.17276
G01 X26.80187 Y24.17766
G01 X26.80126 Y24.19013
G01 X26.80088 Y24.19504
G01 X26.79941 Y24.21010
G01 X26.80969 Y24.31457
G01 X26.84015 Y24.41505
G01 X26.88965 Y24.50763
G01 X26.95625 Y24.58879
G01 X26.96796 Y24.59839
G01 X26.97170 Y24.60161
G01 X26.98094 Y24.60999
G01 X26.98450 Y24.61337
G01 X29.12084 Y26.74972
G01 X29.12638 Y26.75571
G01 X29.13981 Y26.77156
G01 X29.14934 Y26.78484
G01 X29.16001 Y26.80265
G01 X29.16722 Y26.81731
G01 X29.17487 Y26.83661
G01 X29.17962 Y26.85223
G01 X29.18398 Y26.87253
G01 X29.18612 Y26.88876
G01 X29.18713 Y26.90948
G01 X29.18660 Y26.92579
G01 X29.18424 Y26.94644
G01 X29.18297 Y26.95452
G01 X29.16598 Y27.03994
G01 X29.16598 Y27.25822
G01 X29.20855 Y27.47224
G01 X29.29206 Y27.67392
G01 X29.41332 Y27.85538
G01 X29.56768 Y28.00973
G01 X29.74911 Y28.13097
G01 X29.95078 Y28.21451
G01 X30.16486 Y28.25710
G01 X30.38309 Y28.25710
G01 X30.59716 Y28.21451
G01 X30.79884 Y28.13097
G01 X30.98027 Y28.00973
G01 X31.13463 Y27.85538
G01 X31.25586 Y27.67395
G01 X31.33940 Y27.47224
G01 X31.38484 Y27.24382
G01 X31.38705 Y27.23493
G01 X31.39366 Y27.21263
G01 X31.40044 Y27.19564
G01 X31.41098 Y27.17494
G01 X31.42076 Y27.15944
G01 X31.43491 Y27.14103
G01 X31.44733 Y27.12757
G01 X31.46460 Y27.11200
G01 X31.47926 Y27.10107
G01 X31.49907 Y27.08893
G01 X31.51550 Y27.08081
G01 X31.53719 Y27.07252
G01 X31.55479 Y27.06755
G01 X31.57766 Y27.06330
G01 X31.59587 Y27.06160
G01 X31.61911 Y27.06160
G01 X31.63734 Y27.06330
G01 X31.66021 Y27.06755
G01 X31.67781 Y27.07252
G01 X31.69950 Y27.08086
G01 X31.71591 Y27.08896
G01 X31.73574 Y27.10110
G01 X31.75040 Y27.11205
G01 X31.76767 Y27.12757
G01 X31.78009 Y27.14103
G01 X31.79424 Y27.15947
G01 X31.80399 Y27.17496
G01 X31.81456 Y27.19566
G01 X31.82134 Y27.21266
G01 X31.82792 Y27.23493
G01 X31.83013 Y27.24385
G01 X31.87555 Y27.47227
G01 X31.95906 Y27.67392
G01 X32.08032 Y27.85538
G01 X32.23468 Y28.00973
G01 X32.41611 Y28.13097
G01 X32.61778 Y28.21451
G01 X32.83186 Y28.25710
G01 X33.05009 Y28.25710
G01 X33.26416 Y28.21451
G01 X33.46584 Y28.13097
G01 X33.64727 Y28.00973
G01 X33.80163 Y27.85538
G01 X33.92286 Y27.67395
G01 X34.00640 Y27.47227
G01 X34.05184 Y27.24382
G01 X34.05405 Y27.23493
G01 X34.06066 Y27.21263
G01 X34.06744 Y27.19564
G01 X34.07798 Y27.17494
G01 X34.08776 Y27.15944
G01 X34.10191 Y27.14103
G01 X34.11433 Y27.12757
G01 X34.13160 Y27.11200
G01 X34.14626 Y27.10107
G01 X34.16607 Y27.08893
G01 X34.18250 Y27.08081
G01 X34.20419 Y27.07252
G01 X34.22180 Y27.06755
G01 X34.24466 Y27.06330
G01 X34.26287 Y27.06160
G01 X34.28611 Y27.06160
G01 X34.30434 Y27.06330
G01 X34.32720 Y27.06755
G01 X34.34481 Y27.07252
G01 X34.36650 Y27.08086
G01 X34.38291 Y27.08896
G01 X34.40274 Y27.10110
G01 X34.41740 Y27.11205
G01 X34.43467 Y27.12757
G01 X34.44709 Y27.14103
G01 X34.46124 Y27.15947
G01 X34.47099 Y27.17496
G01 X34.48156 Y27.19566
G01 X34.48834 Y27.21266
G01 X34.49492 Y27.23493
G01 X34.49713 Y27.24385
G01 X34.54255 Y27.47227
G01 X34.62606 Y27.67392
G01 X34.74732 Y27.85538
G01 X34.90168 Y28.00973
G01 X35.08311 Y28.13097
G01 X35.28478 Y28.21451
G01 X35.49886 Y28.25710
G01 X35.71709 Y28.25710
G01 X35.93116 Y28.21451
G01 X36.13284 Y28.13097
G01 X36.31427 Y28.00973
G01 X36.46863 Y27.85538
G01 X36.58989 Y27.67392
G01 X36.67340 Y27.47227
G01 X36.71597 Y27.25822
G01 X36.71597 Y27.03994
G01 X36.67340 Y26.82589
G01 X36.58989 Y26.62421
G01 X36.46863 Y26.44278
G01 X36.31430 Y26.28840
G01 X36.13281 Y26.16714
G01 X35.93119 Y26.08365
G01 X35.71709 Y26.04106
G01 X35.49886 Y26.04106
G01 X35.41341 Y26.05807
G01 X35.40533 Y26.05934
G01 X35.38471 Y26.06171
G01 X35.36838 Y26.06224
G01 X35.34765 Y26.06122
G01 X35.33144 Y26.05909
G01 X35.31115 Y26.05472
G01 X35.29550 Y26.04997
G01 X35.27620 Y26.04230
G01 X35.26154 Y26.03511
G01 X35.24374 Y26.02442
G01 X35.23045 Y26.01492
G01 X35.21463 Y26.00148
G01 X35.20861 Y25.99595
G01 X31.40146 Y22.18879
G01 X31.39612 Y22.18303
G01 X31.38319 Y22.16786
G01 X31.37397 Y22.15519
G01 X31.36356 Y22.13819
G01 X31.35642 Y22.12420
G01 X31.34880 Y22.10578
G01 X31.34395 Y22.09087
G01 X31.33930 Y22.07149
G01 X31.33684 Y22.05600
G01 X31.33529 Y22.03611
G01 X31.33496 Y22.02829
G01 X31.33496 Y17.73726
G01 X31.33531 Y17.72908
G01 X31.33699 Y17.70838
G01 X31.33966 Y17.69225
G01 X31.34471 Y17.67214
G01 X31.34997 Y17.65664
G01 X31.35822 Y17.63759
G01 X31.36592 Y17.62319
G01 X31.37717 Y17.60574
G01 X31.38713 Y17.59279
G01 X31.40107 Y17.57740
G01 X31.41299 Y17.56622
G01 X31.42924 Y17.55332
G01 X31.43587 Y17.54852
G01 X31.57204 Y17.45751
G01 X31.74029 Y17.28928
G01 X31.88324 Y17.07534
G01 X31.88908 Y17.06746
G01 X31.90488 Y17.04821
G01 X31.91875 Y17.03434
G01 X31.93798 Y17.01857
G01 X31.95429 Y17.00767
G01 X31.97623 Y16.99594
G01 X31.99434 Y16.98845
G01 X32.01817 Y16.98121
G01 X32.03740 Y16.97740
G01 X32.06219 Y16.97493
G01 X32.08177 Y16.97493
G01 X32.10656 Y16.97740
G01 X32.12579 Y16.98121
G01 X32.14961 Y16.98845
G01 X32.16772 Y16.99594
G01 X32.18967 Y17.00767
G01 X32.20597 Y17.01857
G01 X32.22520 Y17.03434
G01 X32.23907 Y17.04821
G01 X32.25487 Y17.06746
G01 X32.26071 Y17.07534
G01 X32.40369 Y17.28928
G01 X32.57191 Y17.45751
G01 X32.76980 Y17.58974
G01 X32.98964 Y17.68080
G01 X33.22302 Y17.72720
G01 X33.46091 Y17.72720
G01 X33.69431 Y17.68080
G01 X33.91418 Y17.58974
G01 X34.11202 Y17.45753
G01 X34.28027 Y17.28928
G01 X34.42324 Y17.07534
G01 X34.42908 Y17.06746
G01 X34.44488 Y17.04821
G01 X34.45875 Y17.03434
G01 X34.47798 Y17.01857
G01 X34.49429 Y17.00767
G01 X34.51623 Y16.99594
G01 X34.53434 Y16.98845
G01 X34.55817 Y16.98121
G01 X34.57739 Y16.97740
G01 X34.60219 Y16.97493
G01 X34.62177 Y16.97493
G01 X34.64656 Y16.97740
G01 X34.66579 Y16.98121
G01 X34.68961 Y16.98845
G01 X34.70772 Y16.99594
G01 X34.72967 Y17.00767
G01 X34.74597 Y17.01857
G01 X34.76520 Y17.03434
G01 X34.77907 Y17.04821
G01 X34.79487 Y17.06746
G01 X34.80071 Y17.07534
G01 X34.94369 Y17.28928
G01 X35.11191 Y17.45751
G01 X35.30980 Y17.58974
G01 X35.52964 Y17.68080
G01 X35.76304 Y17.72720
G01 X35.90935 Y17.72720
G01 X35.91839 Y17.72764
G01 X35.94127 Y17.72972
G01 X35.95908 Y17.73297
G01 X35.98123 Y17.73914
G01 X35.99814 Y17.74557
G01 X36.01882 Y17.75563
G01 X36.03431 Y17.76500
G01 X36.05280 Y17.77861
G01 X36.06637 Y17.79060
G01 X36.08212 Y17.80734
G01 X36.09329 Y17.82159
G01 X36.10576 Y17.84089
G01 X36.11417 Y17.85692
G01 X36.12296 Y17.87816
G01 X36.12834 Y17.89545
G01 X36.13317 Y17.91793
G01 X36.13535 Y17.93589
G01 X36.13607 Y17.95885
G01 X36.13497 Y17.97694
G01 X36.13149 Y17.99964
G01 X36.12718 Y18.01722
G01 X36.11968 Y18.03896
G01 X36.11224 Y18.05547
G01 X36.10096 Y18.07549
G01 X36.09068 Y18.09037
G01 X36.07594 Y18.10805
G01 X36.06985 Y18.11473
G01 X34.24143 Y19.94315
G01 X34.23500 Y19.94904
G01 X34.21804 Y19.96327
G01 X34.20376 Y19.97328
G01 X34.18458 Y19.98435
G01 X34.16879 Y19.99172
G01 X34.14798 Y19.99929
G01 X34.13114 Y20.00378
G01 X34.10935 Y20.00764
G01 X34.09198 Y20.00917
G01 X34.06983 Y20.00914
G01 X34.05248 Y20.00764
G01 X34.03066 Y20.00378
G01 X34.01382 Y19.99929
G01 X33.99302 Y19.99169
G01 X33.97722 Y19.98432
G01 X33.95804 Y19.97325
G01 X33.94377 Y19.96327
G01 X33.92682 Y19.94902
G01 X33.92037 Y19.94313
G01 X33.81263 Y19.83535
G01 X33.61476 Y19.70315
G01 X33.39495 Y19.61211
G01 X33.16155 Y19.56568
G01 X32.92360 Y19.56568
G01 X32.69020 Y19.61211
G01 X32.47039 Y19.70315
G01 X32.27250 Y19.83538
G01 X32.10427 Y20.00360
G01 X31.97204 Y20.20149
G01 X31.88101 Y20.42131
G01 X31.83458 Y20.65471
G01 X31.83458 Y20.89265
G01 X31.88101 Y21.12603
G01 X31.97204 Y21.34587
G01 X32.10425 Y21.54376
G01 X32.27250 Y21.71198
G01 X32.47039 Y21.84421
G01 X32.69020 Y21.93525
G01 X32.92363 Y21.98168
G01 X33.16155 Y21.98170
G01 X33.31979 Y21.95018
G01 X33.32787 Y21.94894
G01 X33.34849 Y21.94655
G01 X33.36482 Y21.94602
G01 X33.38558 Y21.94703
G01 X33.40178 Y21.94917
G01 X33.42208 Y21.95354
G01 X33.43770 Y21.95829
G01 X33.45700 Y21.96591
G01 X33.47168 Y21.97314
G01 X33.48949 Y21.98381
G01 X33.50277 Y21.99334
G01 X33.51860 Y22.00677
G01 X33.52462 Y22.01231
G01 X38.87848 Y27.36620
G01 X38.88506 Y27.37346
G01 X38.90086 Y27.39272
G01 X38.91175 Y27.40902
G01 X38.92349 Y27.43097
G01 X38.93098 Y27.44908
G01 X38.93822 Y27.47291
G01 X38.94203 Y27.49213
G01 X38.94310 Y27.50278
G01 X38.98755 Y27.72627
G01 X39.07106 Y27.92792
G01 X39.19235 Y28.10940
G01 X39.34665 Y28.26371
G01 X39.52813 Y28.38497
G01 X39.72978 Y28.46851
G01 X39.94386 Y28.51110
G01 X40.16209 Y28.51110
G01 X40.37616 Y28.46851
G01 X40.57781 Y28.38499
G01 X40.75927 Y28.26373
G01 X40.91363 Y28.10938
G01 X41.03486 Y27.92795
G01 X41.11840 Y27.72627
G01 X41.16097 Y27.51222
G01 X41.16097 Y27.29394
G01 X41.11840 Y27.07989
G01 X41.03486 Y26.87822
G01 X40.91363 Y26.69678
G01 X40.75927 Y26.54240
G01 X40.57781 Y26.42114
G01 X40.37616 Y26.33763
G01 X40.16209 Y26.29506
G01 X39.94386 Y26.29506
G01 X39.72981 Y26.33763
G01 X39.61074 Y26.38698
G01 X39.60281 Y26.38987
G01 X39.58249 Y26.39638
G01 X39.56608 Y26.40011
G01 X39.54495 Y26.40311
G01 X39.52816 Y26.40405
G01 X39.50682 Y26.40346
G01 X39.49011 Y26.40158
G01 X39.46916 Y26.39742
G01 X39.45300 Y26.39277
G01 X39.43306 Y26.38515
G01 X39.41790 Y26.37786
G01 X39.39951 Y26.36699
G01 X39.38579 Y26.35726
G01 X39.36949 Y26.34347
G01 X39.36329 Y26.33778
G01 X34.52243 Y21.49695
G01 X34.51618 Y21.49009
G01 X34.50117 Y21.47200
G01 X34.49073 Y21.45671
G01 X34.47930 Y21.43616
G01 X34.47183 Y21.41922
G01 X34.46439 Y21.39692
G01 X34.46020 Y21.37889
G01 X34.45700 Y21.35559
G01 X34.45619 Y21.33710
G01 X34.45733 Y21.31361
G01 X34.45995 Y21.29527
G01 X34.46541 Y21.27241
G01 X34.47135 Y21.25488
G01 X34.48095 Y21.23340
G01 X34.49002 Y21.21727
G01 X34.50340 Y21.19794
G01 X34.51529 Y21.18374
G01 X34.53201 Y21.16720
G01 X34.53889 Y21.16101
G01 X34.54763 Y21.15382
G01 X34.55733 Y21.14201
G01 X34.56053 Y21.13830
G01 X34.56889 Y21.12908
G01 X34.57226 Y21.12552
G01 X37.90101 Y17.79678
G01 X37.90827 Y17.79020
G01 X37.92753 Y17.77440
G01 X37.93540 Y17.76856
G01 X37.94383 Y17.76350
G01 X37.96578 Y17.75177
G01 X37.98389 Y17.74427
G01 X38.00772 Y17.73703
G01 X38.01724 Y17.73465
G01 X38.02694 Y17.73322
G01 X38.05173 Y17.73076
G01 X38.06154 Y17.73028
G01 X39.21079 Y17.73028
G01 X39.30197 Y17.72131
G01 X39.37883 Y17.69799
G01 X39.44972 Y17.66010
G01 X39.51188 Y17.60909
G01 X39.56286 Y17.54697
G01 X39.60075 Y17.47610
G01 X39.62407 Y17.39919
G01 X39.63304 Y17.30803
G01 X39.63304 Y16.10023
G01 X39.63352 Y16.09043
G01 X39.63598 Y16.06564
G01 X39.63741 Y16.05594
G01 X39.63979 Y16.04641
G01 X39.64703 Y16.02259
G01 X39.65033 Y16.01334
G01 X39.65452 Y16.00447
G01 X39.66626 Y15.98253
G01 X39.67131 Y15.97410
G01 X39.67716 Y15.96622
G01 X39.69295 Y15.94697
G01 X39.70680 Y15.93313
G01 X39.72605 Y15.91733
G01 X39.74236 Y15.90643
G01 X39.76430 Y15.89470
G01 X39.77317 Y15.89051
G01 X39.78241 Y15.88720
G01 X39.80624 Y15.87996
G01 X39.81576 Y15.87758
G01 X39.82547 Y15.87615
G01 X39.85026 Y15.87369
G01 X39.86006 Y15.87321
G01 X42.27748 Y15.87321
G01 X42.28726 Y15.87369
G01 X42.31203 Y15.87613
G01 X42.33125 Y15.87996
G01 X42.35508 Y15.88718
G01 X42.37316 Y15.89467
G01 X42.39513 Y15.90641
G01 X42.41142 Y15.91730
G01 X42.43067 Y15.93308
G01 X42.43793 Y15.93965
G01 X42.48073 Y15.98243
G01 X42.48627 Y15.98845
G01 X42.49973 Y16.00427
G01 X42.50926 Y16.01758
G01 X42.51992 Y16.03539
G01 X42.52716 Y16.05004
G01 X42.53478 Y16.06935
G01 X42.53953 Y16.08499
G01 X42.54393 Y16.10531
G01 X42.54606 Y16.12152
G01 X42.54708 Y16.14227
G01 X42.54654 Y16.15860
G01 X42.54416 Y16.17923
G01 X42.54291 Y16.18730
G01 X42.52635 Y16.27039
G01 X42.52635 Y16.48860
G01 X42.56895 Y16.70267
G01 X42.65249 Y16.90432
G01 X42.77375 Y17.08580
G01 X42.92808 Y17.24013
G01 X43.10951 Y17.36137
G01 X43.31118 Y17.44491
G01 X43.52526 Y17.48750
G01 X43.74349 Y17.48750
G01 X43.95756 Y17.44491
G01 X44.15924 Y17.36137
G01 X44.34067 Y17.24013
G01 X44.49503 Y17.08580
G01 X44.61629 Y16.90432
G01 X44.69980 Y16.70267
G01 X44.74237 Y16.48862
G01 X44.74237 Y16.27034
G01 X44.69980 Y16.05629
G01 X44.61626 Y15.85461
G01 X44.49503 Y15.67318
G01 X44.34067 Y15.51883
G01 X44.15924 Y15.39759
G01 X43.95756 Y15.31405
G01 X43.74352 Y15.27148
G01 X43.52526 Y15.27148
G01 X43.44220 Y15.28802
G01 X43.43412 Y15.28926
G01 X43.41350 Y15.29165
G01 X43.39716 Y15.29218
G01 X43.37644 Y15.29117
G01 X43.36023 Y15.28903
G01 X43.33994 Y15.28466
G01 X43.32429 Y15.27991
G01 X43.30499 Y15.27229
G01 X43.29031 Y15.26506
G01 X43.27250 Y15.25439
G01 X43.25922 Y15.24486
G01 X43.24339 Y15.23143
G01 X43.23737 Y15.22589
G01 X42.99788 Y14.98639
G01 X42.99447 Y14.98281
G01 X42.98609 Y14.97357
G01 X42.98286 Y14.96983
G01 X42.97321 Y14.95805
G01 X42.89175 Y14.89122
G01 X42.79884 Y14.84154
G01 X42.69803 Y14.81095
G01 X42.59313 Y14.80064
G01 X42.57789 Y14.80214
G01 X42.57301 Y14.80250
G01 X42.56056 Y14.80311
G01 X42.55569 Y14.80323
G01 X37.10040 Y14.80323
G01 X37.09547 Y14.80311
G01 X37.08305 Y14.80250
G01 X37.07815 Y14.80214
G01 X37.06296 Y14.80064
G01 X36.95809 Y14.81095
G01 X36.85722 Y14.84154
G01 X36.76431 Y14.89122
G01 X36.68288 Y14.95805
G01 X36.67323 Y14.96983
G01 X36.67000 Y14.97357
G01 X36.66159 Y14.98284
G01 X36.65821 Y14.98639
G01 X36.36401 Y15.28057
G01 X36.35672 Y15.28718
G01 X36.33749 Y15.30295
G01 X36.32118 Y15.31385
G01 X36.29924 Y15.32558
G01 X36.28113 Y15.33308
G01 X36.25730 Y15.34032
G01 X36.23807 Y15.34413
G01 X36.21328 Y15.34659
G01 X36.19370 Y15.34659
G01 X36.16891 Y15.34413
G01 X36.15921 Y15.34270
G01 X36.00094 Y15.31123
G01 X35.85461 Y15.31123
G01 X35.84554 Y15.31080
G01 X35.82266 Y15.30872
G01 X35.80485 Y15.30547
G01 X35.78270 Y15.29929
G01 X35.76578 Y15.29287
G01 X35.74511 Y15.28281
G01 X35.72962 Y15.27344
G01 X35.71112 Y15.25982
G01 X35.69756 Y15.24783
G01 X35.68181 Y15.23110
G01 X35.67064 Y15.21685
G01 X35.65816 Y15.19754
G01 X35.64976 Y15.18151
G01 X35.64097 Y15.16028
G01 X35.63558 Y15.14298
G01 X35.63076 Y15.12050
G01 X35.62857 Y15.10255
G01 X35.62786 Y15.07956
G01 X35.62895 Y15.06150
G01 X35.63243 Y15.03877
G01 X35.63675 Y15.02122
G01 X35.64425 Y14.99947
G01 X35.65169 Y14.98296
G01 X35.66297 Y14.96295
G01 X35.67325 Y14.94806
G01 X35.68798 Y14.93039
G01 X35.69408 Y14.92370
G01 X36.81183 Y13.80598
G01 X36.81910 Y13.79940
G01 X36.83835 Y13.78360
G01 X36.85466 Y13.77270
G01 X36.87660 Y13.76097
G01 X36.89471 Y13.75348
G01 X36.91854 Y13.74624
G01 X36.93777 Y13.74243
G01 X36.96256 Y13.73996
G01 X36.97236 Y13.73948
G01 X42.53796 Y13.73948
G01 X42.54611 Y13.73984
G01 X42.56681 Y13.74151
G01 X42.58294 Y13.74418
G01 X42.60306 Y13.74921
G01 X42.61855 Y13.75449
G01 X42.63760 Y13.76275
G01 X42.65200 Y13.77044
G01 X42.66945 Y13.78167
G01 X42.68243 Y13.79165
G01 X42.69780 Y13.80560
G01 X42.70898 Y13.81751
G01 X42.72188 Y13.83379
G01 X42.72671 Y13.84039
G01 X42.77375 Y13.91080
G01 X42.92808 Y14.06513
G01 X43.10953 Y14.18639
G01 X43.31116 Y14.26991
G01 X43.52526 Y14.31250
G01 X43.74349 Y14.31250
G01 X43.95756 Y14.26991
G01 X44.15924 Y14.18637
G01 X44.34067 Y14.06513
G01 X44.49503 Y13.91080
G01 X44.61626 Y13.72935
G01 X44.69980 Y13.52764
G01 X44.74240 Y13.31357
G01 X44.74237 Y13.09536
G01 X44.69980 Y12.88129
G01 X44.61626 Y12.67962
G01 X44.49503 Y12.49818
G01 X44.34067 Y12.34383
G01 X44.15921 Y12.22257
G01 X43.95756 Y12.13905
G01 X43.74349 Y12.09646
G01 X43.52526 Y12.09646
G01 X43.31118 Y12.13905
G01 X43.10953 Y12.22257
G01 X42.92805 Y12.34385
G01 X42.77375 Y12.49816
G01 X42.72671 Y12.56857
G01 X42.72190 Y12.57520
G01 X42.70900 Y12.59145
G01 X42.69783 Y12.60339
G01 X42.68243 Y12.61733
G01 X42.66948 Y12.62727
G01 X42.65203 Y12.63852
G01 X42.63760 Y12.64624
G01 X42.61855 Y12.65449
G01 X42.60308 Y12.65975
G01 X42.58294 Y12.66481
G01 X42.56681 Y12.66747
G01 X42.54611 Y12.66915
G01 X42.53796 Y12.66951
G01 X36.69415 Y12.66951
G01 X36.68920 Y12.66938
G01 X36.67668 Y12.66874
G01 X36.67178 Y12.66839
G01 X36.65666 Y12.66689
G01 X36.55184 Y12.67723
G01 X36.45095 Y12.70783
G01 X36.35804 Y12.75749
G01 X36.27655 Y12.82437
G01 X36.26688 Y12.83616
G01 X36.26368 Y12.83986
G01 X36.25532 Y12.84908
G01 X36.25194 Y12.85264
G01 X33.82401 Y15.28057
G01 X33.81674 Y15.28715
G01 X33.79749 Y15.30295
G01 X33.78118 Y15.31385
G01 X33.75924 Y15.32558
G01 X33.74113 Y15.33308
G01 X33.71730 Y15.34032
G01 X33.69807 Y15.34413
G01 X33.67328 Y15.34659
G01 X33.65370 Y15.34659
G01 X33.62891 Y15.34413
G01 X33.61921 Y15.34270
G01 X33.46094 Y15.31121
G01 X33.22302 Y15.31123
G01 X32.98964 Y15.35764
G01 X32.76975 Y15.44872
G01 X32.57194 Y15.58088
G01 X32.40369 Y15.74915
G01 X32.26071 Y15.96310
G01 X32.25487 Y15.97097
G01 X32.23907 Y15.99023
G01 X32.22520 Y16.00409
G01 X32.20597 Y16.01987
G01 X32.18967 Y16.03076
G01 X32.16772 Y16.04250
G01 X32.14961 Y16.04999
G01 X32.12579 Y16.05723
G01 X32.10656 Y16.06104
G01 X32.08177 Y16.06350
G01 X32.06219 Y16.06350
G01 X32.03740 Y16.06104
G01 X32.01817 Y16.05723
G01 X31.99434 Y16.04999
G01 X31.97623 Y16.04250
G01 X31.95429 Y16.03076
G01 X31.93798 Y16.01987
G01 X31.91875 Y16.00409
G01 X31.90488 Y15.99023
G01 X31.88908 Y15.97097
G01 X31.88324 Y15.96310
G01 X31.74029 Y15.74918
G01 X31.57202 Y15.58088
G01 X31.37420 Y15.44872
G01 X31.15431 Y15.35764
G01 X30.92094 Y15.31123
G01 X30.68302 Y15.31123
G01 X30.44964 Y15.35764
G01 X30.22975 Y15.44872
G01 X30.03194 Y15.58088
G01 X29.86369 Y15.74915
G01 X29.72071 Y15.96310
G01 X29.71487 Y15.97097
G01 X29.69907 Y15.99023
G01 X29.68520 Y16.00409
G01 X29.66597 Y16.01987
G01 X29.64967 Y16.03076
G01 X29.62772 Y16.04250
G01 X29.60961 Y16.04999
G01 X29.58579 Y16.05723
G01 X29.56656 Y16.06104
G01 X29.54177 Y16.06350
G01 X29.52219 Y16.06350
G01 X29.49739 Y16.06104
G01 X29.47817 Y16.05723
G01 X29.45434 Y16.04999
G01 X29.43623 Y16.04250
G01 X29.41429 Y16.03076
G01 X29.39798 Y16.01987
G01 X29.37875 Y16.00409
G01 X29.36488 Y15.99023
G01 X29.34908 Y15.97097
G01 X29.34324 Y15.96310
G01 X29.20029 Y15.74918
G01 X29.03202 Y15.58088
G01 X28.83420 Y15.44872
G01 X28.61431 Y15.35764
G01 X28.38094 Y15.31123
G01 X28.14302 Y15.31123
G01 X27.90964 Y15.35764
G01 X27.68975 Y15.44872
G01 X27.49194 Y15.58088
G01 X27.32366 Y15.74915
G01 X27.18071 Y15.96310
G01 X27.17487 Y15.97097
G01 X27.15907 Y15.99023
G01 X27.14520 Y16.00409
G01 X27.12597 Y16.01987
G01 X27.10967 Y16.03076
G01 X27.08772 Y16.04250
G01 X27.06961 Y16.04999
G01 X27.04579 Y16.05723
G01 X27.02656 Y16.06104
G01 X27.00177 Y16.06350
G01 X26.98219 Y16.06350
G01 X26.95739 Y16.06104
G01 X26.93817 Y16.05723
G01 X26.91434 Y16.04999
G01 X26.89623 Y16.04250
G01 X26.87429 Y16.03076
G01 X26.85798 Y16.01987
G01 X26.83875 Y16.00409
G01 X26.82488 Y15.99023
G01 X26.80908 Y15.97097
G01 X26.80324 Y15.96310
G01 X26.66029 Y15.74918
G01 X26.49202 Y15.58088
G01 X26.29420 Y15.44872
G01 X26.07431 Y15.35764
G01 X25.84094 Y15.31123
G01 X25.60302 Y15.31123
G01 X25.36964 Y15.35764
G01 X25.14975 Y15.44872
G01 X24.95194 Y15.58088
G01 X24.78366 Y15.74918
G01 X24.64069 Y15.96310
G01 X24.63484 Y15.97100
G01 X24.61905 Y15.99023
G01 X24.60518 Y16.00409
G01 X24.58592 Y16.01989
G01 X24.56964 Y16.03076
G01 X24.54767 Y16.04250
G01 X24.52956 Y16.05002
G01 X24.50571 Y16.05723
G01 X24.48651 Y16.06107
G01 X24.46174 Y16.06350
G01 X24.44213 Y16.06350
G01 X24.41734 Y16.06104
G01 X24.39814 Y16.05723
G01 X24.37429 Y16.04999
G01 X24.35618 Y16.04250
G01 X24.33424 Y16.03076
G01 X24.31793 Y16.01987
G01 X24.29868 Y16.00407
G01 X24.28483 Y15.99020
G01 X24.26906 Y15.97097
G01 X24.26319 Y15.96307
G01 X24.12029 Y15.74918
G01 X23.95202 Y15.58088
G01 X23.75418 Y15.44870
G01 X23.53434 Y15.35764
G01 X23.30094 Y15.31123
G01 X23.18382 Y15.31123
G01 X23.17597 Y15.31090
G01 X23.15608 Y15.30935
G01 X23.14059 Y15.30689
G01 X23.12121 Y15.30224
G01 X23.10630 Y15.29739
G01 X23.08788 Y15.28977
G01 X23.07389 Y15.28263
G01 X23.05689 Y15.27222
G01 X23.04422 Y15.26300
G01 X23.02906 Y15.25007
G01 X23.02329 Y15.24474
G01 X18.95746 Y11.17888
G01 X18.95088 Y11.17162
G01 X18.93508 Y11.15236
G01 X18.92419 Y11.13606
G01 X18.91245 Y11.11411
G01 X18.90496 Y11.09600
G01 X18.89772 Y11.07218
G01 X18.89391 Y11.05295
G01 X18.89145 Y11.02816
G01 X18.89096 Y11.01838
G01 X18.89096 Y9.91262
G01 X18.89145 Y9.90281
G01 X18.89391 Y9.87802
G01 X18.89533 Y9.86832
G01 X18.89772 Y9.85879
G01 X18.90496 Y9.83497
G01 X18.90826 Y9.82572
G01 X18.91245 Y9.81686
G01 X18.92419 Y9.79491
G01 X18.93508 Y9.77860
G01 X18.95088 Y9.75935
G01 X18.95746 Y9.75209
G01 X19.04029 Y9.66928
G01 X19.18324 Y9.45534
G01 X19.18908 Y9.44746
G01 X19.20488 Y9.42821
G01 X19.21875 Y9.41434
G01 X19.23798 Y9.39857
G01 X19.25429 Y9.38767
G01 X19.27623 Y9.37594
G01 X19.29434 Y9.36845
G01 X19.31817 Y9.36121
G01 X19.33739 Y9.35740
G01 X19.36219 Y9.35493
G01 X19.38177 Y9.35493
G01 X19.40656 Y9.35740
G01 X19.42579 Y9.36121
G01 X19.44961 Y9.36845
G01 X19.46772 Y9.37594
G01 X19.48967 Y9.38767
G01 X19.50597 Y9.39857
G01 X19.52520 Y9.41434
G01 X19.53907 Y9.42821
G01 X19.55487 Y9.44746
G01 X19.56071 Y9.45534
G01 X19.70366 Y9.66926
G01 X19.87191 Y9.83751
G01 X20.06978 Y9.96974
G01 X20.28962 Y10.06080
G01 X20.52302 Y10.10720
G01 X20.76094 Y10.10720
G01 X20.99434 Y10.06080
G01 X21.21418 Y9.96974
G01 X21.41202 Y9.83753
G01 X21.58029 Y9.66926
G01 X21.72007 Y9.46006
G01 X21.72032 Y9.45961
G01 X21.73089 Y9.44358
G01 X21.74620 Y9.42458
G01 X21.75967 Y9.41086
G01 X21.77834 Y9.39514
G01 X21.79416 Y9.38424
G01 X21.81547 Y9.37238
G01 X21.83310 Y9.36471
G01 X21.85629 Y9.35717
G01 X21.87506 Y9.35300
G01 X21.89926 Y9.35003
G01 X21.91849 Y9.34952
G01 X21.94283 Y9.35122
G01 X21.96177 Y9.35442
G01 X21.98534 Y9.36075
G01 X22.00333 Y9.36751
G01 X22.02525 Y9.37822
G01 X22.04161 Y9.38828
G01 X22.06109 Y9.40301
G01 X22.07521 Y9.41602
G01 X22.09152 Y9.43418
G01 X22.10290 Y9.44967
G01 X22.10343 Y9.45054
G01 X22.12398 Y9.45658
G01 X22.34844 Y9.23212
G01 X22.30437 Y9.09646
G01 X22.30165 Y9.08635
G01 X22.30003 Y9.07602
G01 X22.28252 Y8.90967
G01 X22.28199 Y8.89923
G01 X22.28252 Y8.88877
G01 X22.30003 Y8.72245
G01 X22.30165 Y8.71211
G01 X22.30437 Y8.70200
G01 X22.35603 Y8.54295
G01 X22.35979 Y8.53317
G01 X22.36454 Y8.52384
G01 X22.44818 Y8.37899
G01 X22.45387 Y8.37023
G01 X22.46045 Y8.36210
G01 X22.57236 Y8.23779
G01 X22.57978 Y8.23040
G01 X22.58791 Y8.22382
G01 X22.72321 Y8.12550
G01 X22.73198 Y8.11981
G01 X22.74133 Y8.11506
G01 X22.89411 Y8.04704
G01 X22.90386 Y8.04328
G01 X22.91399 Y8.04056
G01 X23.07757 Y8.00579
G01 X23.08791 Y8.00416
G01 X23.09837 Y8.00360
G01 X23.26561 Y8.00360
G01 X23.27607 Y8.00416
G01 X23.28641 Y8.00579
G01 X23.44999 Y8.04056
G01 X23.46009 Y8.04328
G01 X23.46987 Y8.04704
G01 X23.51392 Y8.06664
G01 X23.73932 Y7.84122
G01 X23.73246 Y7.81785
G01 X23.70604 Y7.80370
G01 X23.47668 Y7.72169
G01 X23.24138 Y7.68681
G01 X23.16624 Y7.69055
G01 X23.15700 Y7.69057
G01 X23.13355 Y7.68956
G01 X23.11524 Y7.68707
G01 X23.09238 Y7.68176
G01 X23.07485 Y7.67592
G01 X23.05336 Y7.66649
G01 X23.03718 Y7.65755
G01 X23.01780 Y7.64434
G01 X23.00355 Y7.63256
G01 X22.98692 Y7.61600
G01 X22.97508 Y7.60182
G01 X22.96180 Y7.58247
G01 X22.95278 Y7.56634
G01 X22.94326 Y7.54490
G01 X22.93736 Y7.52738
G01 X22.93195 Y7.50454
G01 X22.92939 Y7.48625
G01 X22.92827 Y7.46281
G01 X22.92911 Y7.44434
G01 X22.93233 Y7.42110
G01 X22.93655 Y7.40312
G01 X22.94399 Y7.38084
G01 X22.95143 Y7.36395
G01 X22.96286 Y7.34343
G01 X22.97330 Y7.32819
G01 X22.98829 Y7.31013
G01 X22.99451 Y7.30330
G01 X26.14383 Y4.15398
G01 X26.15110 Y4.14740
G01 X26.17035 Y4.13160
G01 X26.17822 Y4.12576
G01 X26.18666 Y4.12070
G01 X26.20860 Y4.10897
G01 X26.22671 Y4.10148
G01 X26.25054 Y4.09424
G01 X26.26006 Y4.09185
G01 X26.26977 Y4.09043
G01 X26.29456 Y4.08796
G01 X26.30436 Y4.08748
G01 X27.19636 Y4.08748
G01 X27.20451 Y4.08784
G01 X27.22521 Y4.08951
G01 X27.24134 Y4.09218
G01 X27.26146 Y4.09723
G01 X27.27695 Y4.10249
G01 X27.29600 Y4.11075
G01 X27.31040 Y4.11844
G01 X27.32785 Y4.12970
G01 X27.34083 Y4.13965
G01 X27.35620 Y4.15360
G01 X27.36738 Y4.16551
G01 X27.38028 Y4.18179
G01 X27.38511 Y4.18839
G01 X27.43215 Y4.25880
G01 X27.58648 Y4.41313
G01 X27.76791 Y4.53437
G01 X27.96964 Y4.61791
G01 X28.18363 Y4.66048
G01 X28.40192 Y4.66048
G01 X28.61594 Y4.61791
G01 X28.81761 Y4.53439
G01 X28.88325 Y4.49053
G01 X28.89112 Y4.48578
G01 X28.91165 Y4.47463
G01 X28.92854 Y4.46739
G01 X28.95074 Y4.46020
G01 X28.96869 Y4.45619
G01 X28.99183 Y4.45319
G01 X29.01020 Y4.45250
G01 X29.03351 Y4.45380
G01 X29.05170 Y4.45649
G01 X29.07438 Y4.46203
G01 X29.09176 Y4.46800
G01 X29.11304 Y4.47757
G01 X29.12904 Y4.48664
G01 X29.14822 Y4.49998
G01 X29.16227 Y4.51181
G01 X29.17868 Y4.52842
G01 X29.19033 Y4.54262
G01 X29.20344 Y4.56195
G01 X29.21231 Y4.57806
G01 X29.22163 Y4.59947
G01 X29.22739 Y4.61692
G01 X29.23265 Y4.63965
G01 X29.23511 Y4.65786
G01 X29.23613 Y4.68121
G01 X29.23522 Y4.69954
G01 X29.23194 Y4.72266
G01 X29.22770 Y4.74057
G01 X29.22023 Y4.76269
G01 X29.21279 Y4.77948
G01 X29.20141 Y4.79987
G01 X29.19099 Y4.81501
G01 X29.17608 Y4.83297
G01 X29.16989 Y4.83978
G01 X26.32138 Y7.68829
G01 X26.31411 Y7.69486
G01 X26.29486 Y7.71066
G01 X26.27858 Y7.72156
G01 X26.25663 Y7.73330
G01 X26.23852 Y7.74079
G01 X26.21470 Y7.74803
G01 X26.19550 Y7.75184
G01 X26.17073 Y7.75428
G01 X26.15112 Y7.75430
G01 X26.12636 Y7.75186
G01 X26.10713 Y7.74805
G01 X26.08330 Y7.74084
G01 X26.07449 Y7.73766
G01 X25.84094 Y7.69123
G01 X25.60304 Y7.69123
G01 X25.36962 Y7.73764
G01 X25.14975 Y7.82872
G01 X24.95194 Y7.96088
G01 X24.78369 Y8.12915
G01 X24.64267 Y8.34018
G01 X24.64185 Y8.34168
G01 X24.63111 Y8.35747
G01 X24.61562 Y8.37614
G01 X24.60208 Y8.38961
G01 X24.58333 Y8.40497
G01 X24.56748 Y8.41562
G01 X24.54617 Y8.42715
G01 X24.52860 Y8.43456
G01 X24.50543 Y8.44185
G01 X24.48679 Y8.44579
G01 X24.46271 Y8.44853
G01 X24.44363 Y8.44889
G01 X24.41945 Y8.44701
G01 X24.40066 Y8.44371
G01 X24.37729 Y8.43728
G01 X24.35946 Y8.43047
G01 X24.33774 Y8.41970
G01 X24.32154 Y8.40965
G01 X24.30223 Y8.39494
G01 X24.28824 Y8.38199
G01 X24.27211 Y8.36390
G01 X24.26080 Y8.34851
G01 X24.26042 Y8.34785
G01 X24.23998 Y8.34185
G01 X24.01552 Y8.56629
G01 X24.05961 Y8.70200
G01 X24.06233 Y8.71211
G01 X24.06393 Y8.72245
G01 X24.08143 Y8.88877
G01 X24.08196 Y8.89923
G01 X24.08143 Y8.90967
G01 X24.06393 Y9.07602
G01 X24.06233 Y9.08635
G01 X24.05961 Y9.09646
G01 X24.01552 Y9.23212
G01 X24.23998 Y9.45656
G01 X24.26639 Y9.44881
G01 X24.26883 Y9.44515
G01 X24.28057 Y9.43060
G01 X24.29715 Y9.41356
G01 X24.31140 Y9.40144
G01 X24.33088 Y9.38780
G01 X24.34714 Y9.37855
G01 X24.36880 Y9.36878
G01 X24.38648 Y9.36273
G01 X24.40960 Y9.35717
G01 X24.42811 Y9.35450
G01 X24.45186 Y9.35333
G01 X24.47056 Y9.35417
G01 X24.49405 Y9.35745
G01 X24.51229 Y9.36177
G01 X24.53482 Y9.36936
G01 X24.55189 Y9.37698
G01 X24.57259 Y9.38866
G01 X24.58796 Y9.39933
G01 X24.60614 Y9.41465
G01 X24.61925 Y9.42801
G01 X24.63423 Y9.44642
G01 X24.63980 Y9.45397
G01 X24.78366 Y9.66926
G01 X24.95194 Y9.83753
G01 X25.14978 Y9.96974
G01 X25.36962 Y10.06080
G01 X25.60302 Y10.10720
G01 X25.84094 Y10.10720
G01 X26.07434 Y10.06080
G01 X26.29418 Y9.96974
G01 X26.49202 Y9.83753
G01 X26.66029 Y9.66926
G01 X26.80324 Y9.45534
G01 X26.80908 Y9.44746
G01 X26.82488 Y9.42821
G01 X26.83875 Y9.41434
G01 X26.85798 Y9.39857
G01 X26.87429 Y9.38767
G01 X26.89623 Y9.37594
G01 X26.91434 Y9.36845
G01 X26.93817 Y9.36121
G01 X26.95739 Y9.35740
G01 X26.98219 Y9.35493
G01 X27.00177 Y9.35493
G01 X27.02656 Y9.35740
G01 X27.04579 Y9.36121
G01 X27.06961 Y9.36845
G01 X27.08772 Y9.37594
G01 X27.10967 Y9.38767
G01 X27.12597 Y9.39857
G01 X27.14520 Y9.41434
G01 X27.15907 Y9.42821
G01 X27.17487 Y9.44746
G01 X27.18071 Y9.45534
G01 X27.32366 Y9.66926
G01 X27.49194 Y9.83753
G01 X27.68975 Y9.96974
G01 X27.90962 Y10.06080
G01 X28.14302 Y10.10720
G01 X28.38094 Y10.10720
G01 X28.61434 Y10.06080
G01 X28.83418 Y9.96974
G01 X29.03202 Y9.83753
G01 X29.20029 Y9.66926
G01 X29.34324 Y9.45534
G01 X29.34908 Y9.44746
G01 X29.36488 Y9.42821
G01 X29.37875 Y9.41434
G01 X29.39798 Y9.39857
G01 X29.41429 Y9.38767
G01 X29.43623 Y9.37594
G01 X29.45434 Y9.36845
G01 X29.47817 Y9.36121
G01 X29.49739 Y9.35740
G01 X29.52219 Y9.35493
G01 X29.54177 Y9.35493
G01 X29.56656 Y9.35740
G01 X29.58579 Y9.36121
G01 X29.60961 Y9.36845
G01 X29.62772 Y9.37594
G01 X29.64967 Y9.38767
G01 X29.66597 Y9.39857
G01 X29.68520 Y9.41434
G01 X29.69907 Y9.42821
G01 X29.71487 Y9.44746
G01 X29.72071 Y9.45534
G01 X29.86366 Y9.66926
G01 X30.03194 Y9.83753
G01 X30.22975 Y9.96974
G01 X30.44962 Y10.06080
G01 X30.68302 Y10.10720
G01 X30.92094 Y10.10720
G01 X31.15434 Y10.06080
G01 X31.37418 Y9.96974
G01 X31.57202 Y9.83753
G01 X31.74029 Y9.66926
G01 X31.88324 Y9.45534
G01 X31.88908 Y9.44746
G01 X31.90488 Y9.42821
G01 X31.91875 Y9.41434
G01 X31.93798 Y9.39857
G01 X31.95429 Y9.38767
G01 X31.97623 Y9.37594
G01 X31.99434 Y9.36845
G01 X32.01817 Y9.36121
G01 X32.03740 Y9.35740
G01 X32.06219 Y9.35493
G01 X32.08177 Y9.35493
G01 X32.10656 Y9.35740
G01 X32.12579 Y9.36121
G01 X32.14961 Y9.36845
G01 X32.16772 Y9.37594
G01 X32.18967 Y9.38767
G01 X32.20597 Y9.39857
G01 X32.22520 Y9.41434
G01 X32.23907 Y9.42821
G01 X32.25487 Y9.44746
G01 X32.26071 Y9.45534
G01 X32.40366 Y9.66926
G01 X32.57191 Y9.83751
G01 X32.76978 Y9.96974
G01 X32.98962 Y10.06080
G01 X33.22302 Y10.10720
G01 X33.46094 Y10.10720
G01 X33.69434 Y10.06080
G01 X33.91418 Y9.96974
G01 X34.11202 Y9.83753
G01 X34.28027 Y9.66928
G01 X34.42324 Y9.45534
G01 X34.42908 Y9.44746
G01 X34.44488 Y9.42821
G01 X34.45875 Y9.41434
G01 X34.47798 Y9.39857
G01 X34.49429 Y9.38767
G01 X34.51623 Y9.37594
G01 X34.53434 Y9.36845
G01 X34.55817 Y9.36121
G01 X34.57739 Y9.35740
G01 X34.60219 Y9.35493
G01 X34.62177 Y9.35493
G01 X34.64656 Y9.35740
G01 X34.66579 Y9.36121
G01 X34.68961 Y9.36845
G01 X34.70772 Y9.37594
G01 X34.72967 Y9.38767
G01 X34.74597 Y9.39857
G01 X34.76520 Y9.41434
G01 X34.77907 Y9.42821
G01 X34.79487 Y9.44746
G01 X34.80071 Y9.45534
G01 X34.94369 Y9.66928
G01 X35.11191 Y9.83751
G01 X35.30978 Y9.96974
G01 X35.52962 Y10.06080
G01 X35.76302 Y10.10720
G01 X36.00094 Y10.10720
G01 X36.23434 Y10.06080
G01 X36.45418 Y9.96974
G01 X36.65202 Y9.83753
G01 X36.82029 Y9.66926
G01 X36.96324 Y9.45534
G01 X36.96908 Y9.44746
G01 X36.98488 Y9.42821
G01 X36.99875 Y9.41434
G01 X37.01798 Y9.39857
G01 X37.03429 Y9.38767
G01 X37.05623 Y9.37594
G01 X37.07434 Y9.36845
G01 X37.09817 Y9.36121
G01 X37.11740 Y9.35740
G01 X37.14219 Y9.35493
G01 X37.16177 Y9.35493
G01 X37.18656 Y9.35740
G01 X37.20579 Y9.36121
G01 X37.22961 Y9.36845
G01 X37.24772 Y9.37594
G01 X37.26967 Y9.38767
G01 X37.28597 Y9.39857
G01 X37.30520 Y9.41434
G01 X37.31907 Y9.42821
G01 X37.33487 Y9.44746
G01 X37.34071 Y9.45534
G01 X37.48366 Y9.66926
G01 X37.65194 Y9.83753
G01 X37.84978 Y9.96974
G01 X38.06962 Y10.06080
G01 X38.30302 Y10.10720
G01 X38.54094 Y10.10720
G01 X38.77434 Y10.06080
G01 X38.99418 Y9.96974
G01 X39.19202 Y9.83753
G01 X39.36027 Y9.66928
G01 X39.40754 Y9.59857
G01 X39.41338 Y9.59070
G01 X39.42918 Y9.57144
G01 X39.44304 Y9.55757
G01 X39.46227 Y9.54180
G01 X39.47858 Y9.53090
G01 X39.50052 Y9.51917
G01 X39.51863 Y9.51168
G01 X39.54246 Y9.50444
G01 X39.56169 Y9.50063
G01 X39.58648 Y9.49816
G01 X39.59628 Y9.49768
G01 X42.56336 Y9.49768
G01 X42.57151 Y9.49804
G01 X42.59221 Y9.49971
G01 X42.60834 Y9.50238
G01 X42.62846 Y9.50743
G01 X42.64395 Y9.51269
G01 X42.66300 Y9.52095
G01 X42.67740 Y9.52864
G01 X42.69485 Y9.53990
G01 X42.70783 Y9.54985
G01 X42.72320 Y9.56380
G01 X42.73438 Y9.57571
G01 X42.74728 Y9.59199
G01 X42.75211 Y9.59859
G01 X42.79915 Y9.66900
G01 X42.95348 Y9.82333
G01 X43.13493 Y9.94459
G01 X43.33658 Y10.02811
G01 X43.55066 Y10.07070
G01 X43.76889 Y10.07070
G01 X43.98296 Y10.02811
G01 X44.18461 Y9.94459
G01 X44.36607 Y9.82333
G01 X44.52040 Y9.66900
G01 X44.64169 Y9.48752
G01 X44.72520 Y9.28587
G01 X44.76777 Y9.07182
G01 X44.76777 Y8.85354
G01 X44.72520 Y8.63949
G01 X44.64166 Y8.43784
G01 X44.52043 Y8.25638
G01 X44.36607 Y8.10203
G01 X44.18461 Y7.98077
G01 X43.98296 Y7.89725
G01 X43.76889 Y7.85466
G01 X43.55066 Y7.85466
G01 X43.33658 Y7.89725
G01 X43.13493 Y7.98077
G01 X42.95345 Y8.10205
G01 X42.79915 Y8.25636
G01 X42.75211 Y8.32677
G01 X42.74730 Y8.33340
G01 X42.73440 Y8.34965
G01 X42.72323 Y8.36159
G01 X42.70783 Y8.37553
G01 X42.69488 Y8.38547
G01 X42.67743 Y8.39672
G01 X42.66300 Y8.40444
G01 X42.64395 Y8.41269
G01 X42.62848 Y8.41795
G01 X42.60834 Y8.42301
G01 X42.59221 Y8.42567
G01 X42.57151 Y8.42735
G01 X42.56336 Y8.42771
G01 X39.68109 Y8.42771
G01 X39.67291 Y8.42735
G01 X39.65221 Y8.42567
G01 X39.63608 Y8.42301
G01 X39.61597 Y8.41795
G01 X39.60047 Y8.41269
G01 X39.58145 Y8.40444
G01 X39.56702 Y8.39674
G01 X39.54957 Y8.38549
G01 X39.53662 Y8.37553
G01 X39.52123 Y8.36162
G01 X39.51005 Y8.34968
G01 X39.49715 Y8.33342
G01 X39.49235 Y8.32682
G01 X39.36029 Y8.12915
G01 X39.19202 Y7.96088
G01 X38.99420 Y7.82872
G01 X38.77434 Y7.73764
G01 X38.54094 Y7.69123
G01 X38.39461 Y7.69123
G01 X38.38554 Y7.69080
G01 X38.36266 Y7.68872
G01 X38.34485 Y7.68547
G01 X38.32270 Y7.67929
G01 X38.30578 Y7.67287
G01 X38.28511 Y7.66281
G01 X38.26962 Y7.65344
G01 X38.25112 Y7.63982
G01 X38.23756 Y7.62783
G01 X38.22181 Y7.61110
G01 X38.21064 Y7.59685
G01 X38.19816 Y7.57754
G01 X38.18976 Y7.56151
G01 X38.18097 Y7.54028
G01 X38.17558 Y7.52298
G01 X38.17076 Y7.50050
G01 X38.16857 Y7.48255
G01 X38.16786 Y7.45956
G01 X38.16895 Y7.44150
G01 X38.17243 Y7.41877
G01 X38.17675 Y7.40122
G01 X38.18425 Y7.37947
G01 X38.19169 Y7.36296
G01 X38.20297 Y7.34295
G01 X38.21325 Y7.32806
G01 X38.22798 Y7.31039
G01 X38.23408 Y7.30370
G01 X39.27563 Y6.26218
G01 X39.28290 Y6.25560
G01 X39.30215 Y6.23980
G01 X39.31846 Y6.22890
G01 X39.34040 Y6.21717
G01 X39.35851 Y6.20968
G01 X39.38234 Y6.20244
G01 X39.40157 Y6.19863
G01 X39.42636 Y6.19616
G01 X39.43616 Y6.19568
G01 X42.63956 Y6.19568
G01 X42.64771 Y6.19604
G01 X42.66841 Y6.19771
G01 X42.68454 Y6.20038
G01 X42.70466 Y6.20543
G01 X42.72015 Y6.21069
G01 X42.73920 Y6.21895
G01 X42.75360 Y6.22664
G01 X42.77105 Y6.23790
G01 X42.78403 Y6.24785
G01 X42.79940 Y6.26180
G01 X42.81058 Y6.27371
G01 X42.82348 Y6.28999
G01 X42.82831 Y6.29659
G01 X42.87535 Y6.36700
G01 X43.02968 Y6.52133
G01 X43.21113 Y6.64259
G01 X43.41278 Y6.72611
G01 X43.62686 Y6.76868
G01 X43.84509 Y6.76868
G01 X44.05916 Y6.72611
G01 X44.26079 Y6.64259
G01 X44.44230 Y6.52131
G01 X44.59663 Y6.36698
G01 X44.71789 Y6.18552
G01 X44.80140 Y5.98387
G01 X44.84400 Y5.76977
G01 X44.84400 Y5.55159
G01 X44.80140 Y5.33749
G01 X44.71789 Y5.13584
G01 X44.59663 Y4.95438
G01 X44.44230 Y4.80005
G01 X44.26084 Y4.67879
G01 X44.05914 Y4.59525
G01 X43.84512 Y4.55268
G01 X43.62683 Y4.55268
G01 X43.41281 Y4.59525
G01 X43.21111 Y4.67879
G01 X43.02968 Y4.80003
G01 X42.87535 Y4.95436
G01 X42.82831 Y5.02477
G01 X42.82350 Y5.03140
G01 X42.81060 Y5.04765
G01 X42.79943 Y5.05959
G01 X42.78403 Y5.07353
G01 X42.77108 Y5.08347
G01 X42.75363 Y5.09472
G01 X42.73920 Y5.10244
G01 X42.72015 Y5.11069
G01 X42.70468 Y5.11595
G01 X42.68454 Y5.12101
G01 X42.66841 Y5.12367
G01 X42.64771 Y5.12535
G01 X42.63956 Y5.12571
G01 X39.15795 Y5.12571
G01 X39.15300 Y5.12558
G01 X39.14048 Y5.12494
G01 X39.13558 Y5.12459
G01 X39.12044 Y5.12309
G01 X39.01564 Y5.13343
G01 X38.98541 Y5.14260
G01 X38.97624 Y5.14491
G01 X38.95272 Y5.14968
G01 X38.93393 Y5.15166
G01 X38.90992 Y5.15192
G01 X38.89108 Y5.15032
G01 X38.86745 Y5.14605
G01 X38.84924 Y5.14095
G01 X38.82684 Y5.13231
G01 X38.80992 Y5.12388
G01 X38.78955 Y5.11115
G01 X38.77454 Y5.09970
G01 X38.75691 Y5.08339
G01 X38.74432 Y5.06929
G01 X38.73009 Y5.04996
G01 X38.72036 Y5.03373
G01 X38.71003 Y5.01209
G01 X38.70352 Y4.99434
G01 X38.69745 Y4.97110
G01 X38.69440 Y4.95245
G01 X38.69280 Y4.92850
G01 X38.69334 Y4.90960
G01 X38.69628 Y4.88578
G01 X38.70035 Y4.86731
G01 X38.70771 Y4.84445
G01 X38.71518 Y4.82710
G01 X38.72671 Y4.80605
G01 X38.73733 Y4.79040
G01 X38.75262 Y4.77188
G01 X38.75900 Y4.76487
G01 X38.81775 Y4.70610
G01 X38.82377 Y4.70056
G01 X38.83959 Y4.68712
G01 X38.85288 Y4.67760
G01 X38.87068 Y4.66693
G01 X38.88536 Y4.65969
G01 X38.90467 Y4.65205
G01 X38.92031 Y4.64732
G01 X38.94061 Y4.64293
G01 X38.95681 Y4.64079
G01 X38.97756 Y4.63978
G01 X38.99390 Y4.64031
G01 X39.01452 Y4.64270
G01 X39.02260 Y4.64394
G01 X39.10568 Y4.66050
G01 X39.32392 Y4.66048
G01 X39.53791 Y4.61791
G01 X39.73964 Y4.53437
G01 X39.92107 Y4.41313
G01 X40.07543 Y4.25878
G01 X40.19669 Y4.07732
G01 X40.28020 Y3.87567
G01 X40.32280 Y3.66160
G01 X40.32280 Y3.44336
G01 X40.28020 Y3.22929
G01 X40.19669 Y3.02764
G01 X40.07543 Y2.84618
G01 X39.92107 Y2.69183
G01 X39.73961 Y2.57057
G01 X39.53794 Y2.48705
G01 X39.32392 Y2.44448
G01 X39.10563 Y2.44448
G01 X38.89158 Y2.48705
G01 X38.68996 Y2.57057
G01 X38.50845 Y2.69185
G01 X38.35412 Y2.84618
G01 X38.23289 Y3.02761
G01 X38.14935 Y3.22929
G01 X38.10393 Y3.45771
G01 X38.10172 Y3.46663
G01 X38.09514 Y3.48890
G01 X38.08836 Y3.50590
G01 X38.07779 Y3.52660
G01 X38.06804 Y3.54209
G01 X38.05389 Y3.56053
G01 X38.04147 Y3.57397
G01 X38.02420 Y3.58951
G01 X38.00954 Y3.60046
G01 X37.98971 Y3.61260
G01 X37.97330 Y3.62071
G01 X37.95161 Y3.62904
G01 X37.93400 Y3.63401
G01 X37.91114 Y3.63826
G01 X37.89291 Y3.63993
G01 X37.86967 Y3.63993
G01 X37.85145 Y3.63826
G01 X37.82859 Y3.63401
G01 X37.81099 Y3.62904
G01 X37.78930 Y3.62073
G01 X37.77287 Y3.61263
G01 X37.75306 Y3.60049
G01 X37.73840 Y3.58954
G01 X37.72113 Y3.57399
G01 X37.70871 Y3.56053
G01 X37.69456 Y3.54212
G01 X37.68478 Y3.52662
G01 X37.67424 Y3.50592
G01 X37.66746 Y3.48893
G01 X37.66085 Y3.46663
G01 X37.65864 Y3.45774
G01 X37.61320 Y3.22929
G01 X37.52969 Y3.02764
G01 X37.40843 Y2.84618
G01 X37.25410 Y2.69185
G01 X37.07259 Y2.57057
G01 X36.87094 Y2.48705
G01 X36.65692 Y2.44448
G01 X36.43863 Y2.44448
G01 X36.22461 Y2.48705
G01 X36.02293 Y2.57057
G01 X35.84148 Y2.69183
G01 X35.68712 Y2.84618
G01 X35.56586 Y3.02764
G01 X35.48235 Y3.22927
G01 X35.43693 Y3.45771
G01 X35.43472 Y3.46663
G01 X35.42814 Y3.48890
G01 X35.42136 Y3.50590
G01 X35.41079 Y3.52660
G01 X35.40104 Y3.54209
G01 X35.38689 Y3.56053
G01 X35.37447 Y3.57397
G01 X35.35720 Y3.58951
G01 X35.34254 Y3.60046
G01 X35.32271 Y3.61260
G01 X35.30630 Y3.62071
G01 X35.28461 Y3.62904
G01 X35.26700 Y3.63401
G01 X35.24415 Y3.63826
G01 X35.22591 Y3.63993
G01 X35.20267 Y3.63993
G01 X35.18445 Y3.63826
G01 X35.16159 Y3.63401
G01 X35.14399 Y3.62904
G01 X35.12230 Y3.62073
G01 X35.10587 Y3.61263
G01 X35.08606 Y3.60049
G01 X35.07140 Y3.58954
G01 X35.05413 Y3.57399
G01 X35.04171 Y3.56053
G01 X35.02756 Y3.54212
G01 X35.01778 Y3.52662
G01 X35.00724 Y3.50592
G01 X35.00046 Y3.48893
G01 X34.99385 Y3.46663
G01 X34.99164 Y3.45774
G01 X34.94620 Y3.22929
G01 X34.86269 Y3.02764
G01 X34.74143 Y2.84618
G01 X34.58707 Y2.69183
G01 X34.40561 Y2.57057
G01 X34.20394 Y2.48705
G01 X33.98992 Y2.44448
G01 X33.77163 Y2.44448
G01 X33.55761 Y2.48705
G01 X33.35593 Y2.57057
G01 X33.17448 Y2.69183
G01 X33.02012 Y2.84618
G01 X32.89886 Y3.02764
G01 X32.81535 Y3.22929
G01 X32.76993 Y3.45771
G01 X32.76772 Y3.46663
G01 X32.76114 Y3.48890
G01 X32.75436 Y3.50590
G01 X32.74379 Y3.52660
G01 X32.73404 Y3.54209
G01 X32.71989 Y3.56053
G01 X32.70747 Y3.57397
G01 X32.69020 Y3.58951
G01 X32.67554 Y3.60046
G01 X32.65571 Y3.61260
G01 X32.63930 Y3.62071
G01 X32.61761 Y3.62904
G01 X32.60000 Y3.63401
G01 X32.57715 Y3.63826
G01 X32.55891 Y3.63993
G01 X32.53567 Y3.63993
G01 X32.51745 Y3.63826
G01 X32.49460 Y3.63401
G01 X32.47699 Y3.62904
G01 X32.45530 Y3.62073
G01 X32.43887 Y3.61263
G01 X32.41906 Y3.60049
G01 X32.40440 Y3.58954
G01 X32.38713 Y3.57399
G01 X32.37471 Y3.56053
G01 X32.36056 Y3.54212
G01 X32.35078 Y3.52662
G01 X32.34024 Y3.50592
G01 X32.33346 Y3.48893
G01 X32.32685 Y3.46663
G01 X32.32464 Y3.45774
G01 X32.27920 Y3.22929
G01 X32.19566 Y3.02761
G01 X32.07443 Y2.84618
G01 X31.92010 Y2.69185
G01 X31.73861 Y2.57057
G01 X31.53694 Y2.48705
G01 X31.32292 Y2.44448
G01 X31.10463 Y2.44448
G01 X30.89061 Y2.48705
G01 X30.68893 Y2.57057
G01 X30.50748 Y2.69183
G01 X30.35312 Y2.84618
G01 X30.23186 Y3.02764
G01 X30.14835 Y3.22929
G01 X30.10575 Y3.44339
G01 X30.10578 Y3.66160
G01 X30.12231 Y3.74466
G01 X30.12356 Y3.75273
G01 X30.12594 Y3.77336
G01 X30.12648 Y3.78969
G01 X30.12546 Y3.81039
G01 X30.12333 Y3.82660
G01 X30.11896 Y3.84692
G01 X30.11421 Y3.86256
G01 X30.10659 Y3.88187
G01 X30.09935 Y3.89655
G01 X30.08868 Y3.91435
G01 X30.07916 Y3.92764
G01 X30.06572 Y3.94346
G01 X30.06018 Y3.94948
G01 X29.58007 Y4.42959
G01 X29.57326 Y4.43579
G01 X29.55531 Y4.45070
G01 X29.54017 Y4.46111
G01 X29.51977 Y4.47249
G01 X29.50298 Y4.47994
G01 X29.48086 Y4.48740
G01 X29.46295 Y4.49165
G01 X29.43984 Y4.49492
G01 X29.42150 Y4.49584
G01 X29.39816 Y4.49482
G01 X29.37995 Y4.49236
G01 X29.35721 Y4.48710
G01 X29.33976 Y4.48133
G01 X29.31835 Y4.47201
G01 X29.30225 Y4.46315
G01 X29.28292 Y4.45004
G01 X29.26872 Y4.43838
G01 X29.25211 Y4.42197
G01 X29.24027 Y4.40793
G01 X29.22694 Y4.38875
G01 X29.21787 Y4.37275
G01 X29.20829 Y4.35146
G01 X29.20232 Y4.33409
G01 X29.19679 Y4.31141
G01 X29.19409 Y4.29322
G01 X29.19280 Y4.26990
G01 X29.19348 Y4.25154
G01 X29.19648 Y4.22840
G01 X29.20049 Y4.21044
G01 X29.20768 Y4.18824
G01 X29.21492 Y4.17135
G01 X29.22607 Y4.15083
G01 X29.23082 Y4.14295
G01 X29.27466 Y4.07735
G01 X29.35820 Y3.87567
G01 X29.40080 Y3.66160
G01 X29.40080 Y3.44336
G01 X29.35820 Y3.22929
G01 X29.27469 Y3.02764
G01 X29.15343 Y2.84618
G01 X28.99910 Y2.69185
G01 X28.81759 Y2.57057
G01 X28.61596 Y2.48705
G01 X28.40192 Y2.44448
G01 X28.18363 Y2.44448
G01 X27.96961 Y2.48705
G01 X27.76793 Y2.57057
G01 X27.58648 Y2.69183
G01 X27.43215 Y2.84616
G01 X27.38511 Y2.91657
G01 X27.38030 Y2.92320
G01 X27.36740 Y2.93945
G01 X27.35623 Y2.95139
G01 X27.34083 Y2.96533
G01 X27.32788 Y2.97527
G01 X27.31043 Y2.98652
G01 X27.29600 Y2.99424
G01 X27.27695 Y3.00249
G01 X27.26148 Y3.00775
G01 X27.24134 Y3.01281
G01 X27.22521 Y3.01547
G01 X27.20451 Y3.01715
G01 X27.19636 Y3.01751
G01 X26.02615 Y3.01751
G01 X26.02120 Y3.01738
G01 X26.00868 Y3.01674
G01 X26.00378 Y3.01639
G01 X25.98866 Y3.01489
G01 X25.88384 Y3.02523
G01 X25.78295 Y3.05583
G01 X25.69004 Y3.10549
G01 X25.60858 Y3.17234
G01 X25.59888 Y3.18416
G01 X25.59568 Y3.18786
G01 X25.58732 Y3.19708
G01 X25.58394 Y3.20064
G01 X25.48930 Y3.29528
G01 X25.48219 Y3.30176
G01 X25.46334 Y3.31728
G01 X25.44742 Y3.32800
G01 X25.42595 Y3.33963
G01 X25.40825 Y3.34712
G01 X25.38496 Y3.35444
G01 X25.36616 Y3.35840
G01 X25.34190 Y3.36112
G01 X25.32270 Y3.36142
G01 X25.29837 Y3.35947
G01 X25.27945 Y3.35606
G01 X25.25595 Y3.34948
G01 X25.23802 Y3.34255
G01 X25.21623 Y3.33158
G01 X25.19994 Y3.32134
G01 X25.18064 Y3.30643
G01 X25.16664 Y3.29325
G01 X25.15054 Y3.27491
G01 X25.13931 Y3.25931
G01 X25.12702 Y3.23823
G01 X25.11899 Y3.22078
G01 X25.11097 Y3.19772
G01 X25.10825 Y3.18850
G01 X25.07625 Y3.05718
G01 X25.02021 Y2.93671
G01 X25.01605 Y2.93564
G01 X24.78021 Y3.17151
G01 X24.80541 Y3.24905
G01 X24.80810 Y3.25916
G01 X24.80975 Y3.26950
G01 X24.82504 Y3.41504
G01 X24.82560 Y3.42551
G01 X24.82504 Y3.43595
G01 X24.80975 Y3.58149
G01 X24.80810 Y3.59183
G01 X24.80541 Y3.60193
G01 X24.76017 Y3.74110
G01 X24.75643 Y3.75088
G01 X24.75166 Y3.76020
G01 X24.67851 Y3.88695
G01 X24.67279 Y3.89571
G01 X24.66621 Y3.90386
G01 X24.56830 Y4.01260
G01 X24.56088 Y4.02002
G01 X24.55275 Y4.02660
G01 X24.43434 Y4.11260
G01 X24.42557 Y4.11832
G01 X24.41625 Y4.12307
G01 X24.28257 Y4.18258
G01 X24.27279 Y4.18634
G01 X24.26268 Y4.18906
G01 X24.11953 Y4.21948
G01 X24.10922 Y4.22111
G01 X24.09875 Y4.22167
G01 X23.95240 Y4.22167
G01 X23.94196 Y4.22111
G01 X23.93162 Y4.21948
G01 X23.78847 Y4.18906
G01 X23.77838 Y4.18634
G01 X23.76893 Y4.18273
G01 X23.53574 Y4.41595
G01 X23.53858 Y4.42721
G01 X23.74803 Y4.50371
G01 X23.76728 Y4.50668
G01 X23.77627 Y4.50851
G01 X23.79883 Y4.51415
G01 X23.81615 Y4.52022
G01 X23.83728 Y4.52990
G01 X23.85318 Y4.53902
G01 X23.87226 Y4.55240
G01 X23.88623 Y4.56429
G01 X23.90249 Y4.58090
G01 X23.91407 Y4.59513
G01 X23.92702 Y4.61445
G01 X23.93581 Y4.63056
G01 X23.94506 Y4.65192
G01 X23.95075 Y4.66934
G01 X23.95590 Y4.69203
G01 X23.95834 Y4.71021
G01 X23.95928 Y4.73345
G01 X23.95834 Y4.75177
G01 X23.95499 Y4.77480
G01 X23.95075 Y4.79264
G01 X23.94328 Y4.81468
G01 X23.93584 Y4.83142
G01 X23.92448 Y4.85174
G01 X23.91407 Y4.86683
G01 X23.89918 Y4.88474
G01 X23.89301 Y4.89152
G01 X21.12401 Y7.66057
G01 X21.11799 Y7.66611
G01 X21.10216 Y7.67955
G01 X21.08885 Y7.68907
G01 X21.07105 Y7.69974
G01 X21.05639 Y7.70698
G01 X21.03706 Y7.71460
G01 X21.02142 Y7.71935
G01 X21.00112 Y7.72372
G01 X20.98492 Y7.72585
G01 X20.96419 Y7.72687
G01 X20.94783 Y7.72634
G01 X20.92721 Y7.72395
G01 X20.91913 Y7.72268
G01 X20.89784 Y7.71844
G01 X20.88832 Y7.71605
G01 X20.86449 Y7.70881
G01 X20.84638 Y7.70132
G01 X20.82444 Y7.68956
G01 X20.80816 Y7.67869
G01 X20.78890 Y7.66289
G01 X20.77506 Y7.64902
G01 X20.75926 Y7.62976
G01 X20.74839 Y7.61346
G01 X20.73666 Y7.59151
G01 X20.72916 Y7.57340
G01 X20.72195 Y7.54958
G01 X20.71811 Y7.53035
G01 X20.71568 Y7.50556
G01 X20.71570 Y7.48598
G01 X20.71814 Y7.46118
G01 X20.72197 Y7.44196
G01 X20.72919 Y7.41816
G01 X20.73671 Y7.40005
G01 X20.74844 Y7.37808
G01 X20.75934 Y7.36179
G01 X20.77514 Y7.34254
G01 X20.78172 Y7.33528
G01 X20.86523 Y7.25179
G01 X20.86876 Y7.24841
G01 X20.87796 Y7.24008
G01 X20.88166 Y7.23690
G01 X20.90318 Y7.21922
G01 X21.00178 Y7.09908
G01 X21.07503 Y6.96200
G01 X21.12017 Y6.81331
G01 X21.13538 Y6.65857
G01 X21.13267 Y6.63094
G01 X21.13231 Y6.62603
G01 X21.13170 Y6.61361
G01 X21.13157 Y6.60874
G01 X21.13157 Y4.29746
G01 X21.13206 Y4.28766
G01 X21.13452 Y4.26287
G01 X21.13594 Y4.25317
G01 X21.13833 Y4.24364
G01 X21.14557 Y4.21981
G01 X21.15306 Y4.20170
G01 X21.16480 Y4.17976
G01 X21.16985 Y4.17133
G01 X21.17569 Y4.16345
G01 X21.19149 Y4.14420
G01 X21.19807 Y4.13693
G01 X21.20320 Y4.13180
G01 X21.32446 Y3.95035
G01 X21.40800 Y3.74867
G01 X21.45060 Y3.53460
G01 X21.45060 Y3.31636
G01 X21.40800 Y3.10229
G01 X21.32446 Y2.90061
G01 X21.20323 Y2.71916
G01 X21.04887 Y2.56483
G01 X20.86741 Y2.44357
G01 X20.66576 Y2.36005
G01 X20.45167 Y2.31746
G01 X20.23348 Y2.31746
G01 X20.01938 Y2.36005
G01 X19.81773 Y2.44357
G01 X19.63625 Y2.56485
G01 X19.48192 Y2.71918
G01 X19.36066 Y2.90064
G01 X19.27715 Y3.10234
G01 X19.23455 Y3.31636
G01 X19.23455 Y3.53460
G01 X19.27715 Y3.74864
G01 X19.36069 Y3.95035
G01 X19.48190 Y4.13173
G01 X19.48700 Y4.13683
G01 X19.49233 Y4.14260
G01 X19.50529 Y4.15776
G01 X19.51453 Y4.17046
G01 X19.52497 Y4.18746
G01 X19.53211 Y4.20145
G01 X19.53973 Y4.21989
G01 X19.54458 Y4.23480
G01 X19.54926 Y4.25421
G01 X19.55172 Y4.26973
G01 X19.55327 Y4.28959
G01 X19.55360 Y4.29746
G01 X19.55360 Y6.23779
G01 X19.55327 Y6.24562
G01 X19.55172 Y6.26551
G01 X19.54926 Y6.28100
G01 X19.54461 Y6.30038
G01 X19.53976 Y6.31529
G01 X19.53214 Y6.33370
G01 X19.52500 Y6.34770
G01 X19.51459 Y6.36469
G01 X19.50537 Y6.37737
G01 X19.49244 Y6.39253
G01 X19.48710 Y6.39830
G01 X18.26064 Y7.62474
G01 X18.25337 Y7.63131
G01 X18.23412 Y7.64711
G01 X18.21781 Y7.65801
G01 X18.19587 Y7.66974
G01 X18.17776 Y7.67724
G01 X18.15393 Y7.68448
G01 X18.13471 Y7.68829
G01 X18.10991 Y7.69075
G01 X18.10014 Y7.69123
G01 X17.98302 Y7.69123
G01 X17.74962 Y7.73764
G01 X17.52975 Y7.82872
G01 X17.33196 Y7.96088
G01 X17.16369 Y8.12915
G01 X17.02071 Y8.34310
G01 X17.01487 Y8.35097
G01 X16.99907 Y8.37023
G01 X16.98520 Y8.38409
G01 X16.96597 Y8.39987
G01 X16.94967 Y8.41076
G01 X16.92772 Y8.42250
G01 X16.90961 Y8.42999
G01 X16.88579 Y8.43723
G01 X16.86656 Y8.44104
G01 X16.84177 Y8.44350
G01 X16.82219 Y8.44350
G01 X16.79739 Y8.44104
G01 X16.77817 Y8.43723
G01 X16.75434 Y8.42999
G01 X16.73623 Y8.42250
G01 X16.71429 Y8.41076
G01 X16.69798 Y8.39987
G01 X16.67875 Y8.38409
G01 X16.66488 Y8.37023
G01 X16.64908 Y8.35097
G01 X16.64324 Y8.34310
G01 X16.50029 Y8.12918
G01 X16.33202 Y7.96088
G01 X16.13420 Y7.82872
G01 X16.08813 Y7.80962
G01 X16.08048 Y7.80609
G01 X16.06153 Y7.79629
G01 X16.04728 Y7.78735
G01 X16.03024 Y7.77452
G01 X16.01769 Y7.76332
G01 X16.00304 Y7.74780
G01 X15.99255 Y7.73464
G01 X15.98068 Y7.71691
G01 X15.97256 Y7.70218
G01 X15.96382 Y7.68270
G01 X15.95828 Y7.66682
G01 X15.95295 Y7.64615
G01 X15.95013 Y7.62959
G01 X15.94832 Y7.60830
G01 X15.94797 Y7.59992
G01 X15.94797 Y6.40287
G01 X15.94832 Y6.39469
G01 X15.95000 Y6.37399
G01 X15.95267 Y6.35786
G01 X15.95772 Y6.33774
G01 X15.96298 Y6.32225
G01 X15.97123 Y6.30322
G01 X15.97893 Y6.28880
G01 X15.99018 Y6.27135
G01 X16.00014 Y6.25839
G01 X16.01406 Y6.24300
G01 X16.02600 Y6.23182
G01 X16.04225 Y6.21892
G01 X16.04886 Y6.21412
G01 X16.12130 Y6.16571
G01 X16.27563 Y6.01138
G01 X16.39689 Y5.82992
G01 X16.48040 Y5.62824
G01 X16.52300 Y5.41417
G01 X16.52300 Y5.19599
G01 X16.48040 Y4.98192
G01 X16.39689 Y4.78024
G01 X16.27563 Y4.59878
G01 X16.12127 Y4.44443
G01 X15.93981 Y4.32317
G01 X15.73816 Y4.23965
G01 X15.52409 Y4.19706
G01 X15.30586 Y4.19706
G01 X15.09178 Y4.23965
G01 X14.89013 Y4.32317
G01 X14.70868 Y4.44443
G01 X14.55435 Y4.59876
G01 X14.43306 Y4.78024
G01 X14.34955 Y4.98187
G01 X14.30698 Y5.19594
G01 X14.30698 Y5.41422
G01 X14.34955 Y5.62827
G01 X14.43306 Y5.82992
G01 X14.55432 Y6.01138
G01 X14.70868 Y6.16573
G01 X14.78109 Y6.21412
G01 X14.78770 Y6.21892
G01 X14.80395 Y6.23182
G01 X14.81589 Y6.24300
G01 X14.82981 Y6.25839
G01 X14.83977 Y6.27135
G01 X14.85102 Y6.28880
G01 X14.85871 Y6.30322
G01 X14.86697 Y6.32225
G01 X14.87223 Y6.33774
G01 X14.87728 Y6.35786
G01 X14.87995 Y6.37399
G01 X14.88163 Y6.39469
G01 X14.88198 Y6.40287
G01 X14.88198 Y7.77940
G01 X14.88150 Y7.78918
G01 X14.87906 Y7.81394
G01 X14.87522 Y7.83317
G01 X14.86801 Y7.85697
G01 X14.86052 Y7.87508
G01 X14.84878 Y7.89702
G01 X14.83791 Y7.91333
G01 X14.82214 Y7.93256
G01 X14.80827 Y7.94643
G01 X14.79773 Y7.95509
G01 X14.62369 Y8.12915
G01 X14.48071 Y8.34310
G01 X14.47487 Y8.35097
G01 X14.45907 Y8.37023
G01 X14.44520 Y8.38409
G01 X14.42597 Y8.39987
G01 X14.40967 Y8.41076
G01 X14.38772 Y8.42250
G01 X14.36961 Y8.42999
G01 X14.34579 Y8.43723
G01 X14.32656 Y8.44104
G01 X14.30177 Y8.44350
G01 X14.28219 Y8.44350
G01 X14.25740 Y8.44104
G01 X14.23817 Y8.43723
G01 X14.21434 Y8.42999
G01 X14.19623 Y8.42250
G01 X14.17429 Y8.41076
G01 X14.15798 Y8.39987
G01 X14.13875 Y8.38409
G01 X14.12488 Y8.37023
G01 X14.10908 Y8.35097
G01 X14.10324 Y8.34310
G01 X13.96029 Y8.12918
G01 X13.79202 Y7.96088
G01 X13.59420 Y7.82872
G01 X13.37431 Y7.73764
G01 X13.33665 Y7.73012
G01 X13.32712 Y7.72773
G01 X13.30332 Y7.72052
G01 X13.28521 Y7.71300
G01 X13.26324 Y7.70127
G01 X13.24696 Y7.69037
G01 X13.22770 Y7.67460
G01 X13.21386 Y7.66073
G01 X13.19806 Y7.64147
G01 X13.18719 Y7.62519
G01 X13.17546 Y7.60322
G01 X13.16794 Y7.58511
G01 X13.16072 Y7.56129
G01 X13.15689 Y7.54208
G01 X13.15445 Y7.51729
G01 X13.15397 Y7.50751
G01 X13.15397 Y6.40287
G01 X13.15432 Y6.39469
G01 X13.15600 Y6.37399
G01 X13.15867 Y6.35786
G01 X13.16372 Y6.33774
G01 X13.16898 Y6.32225
G01 X13.17723 Y6.30322
G01 X13.18493 Y6.28880
G01 X13.19618 Y6.27135
G01 X13.20614 Y6.25839
G01 X13.22006 Y6.24300
G01 X13.23200 Y6.23182
G01 X13.24825 Y6.21892
G01 X13.25486 Y6.21412
G01 X13.32730 Y6.16571
G01 X13.48163 Y6.01138
G01 X13.60289 Y5.82992
G01 X13.68640 Y5.62827
G01 X13.72900 Y5.41417
G01 X13.72900 Y5.19599
G01 X13.68640 Y4.98189
G01 X13.60289 Y4.78024
G01 X13.48163 Y4.59878
G01 X13.32727 Y4.44443
G01 X13.14581 Y4.32317
G01 X12.94416 Y4.23965
G01 X12.73009 Y4.19706
G01 X12.51186 Y4.19706
G01 X12.29778 Y4.23965
G01 X12.09613 Y4.32317
G01 X11.91468 Y4.44443
G01 X11.76032 Y4.59878
G01 X11.63906 Y4.78024
G01 X11.55555 Y4.98187
G01 X11.51013 Y5.21031
G01 X11.50792 Y5.21923
G01 X11.50134 Y5.24150
G01 X11.49456 Y5.25850
G01 X11.48399 Y5.27920
G01 X11.47424 Y5.29469
G01 X11.46009 Y5.31313
G01 X11.44767 Y5.32657
G01 X11.43040 Y5.34211
G01 X11.41574 Y5.35306
G01 X11.39591 Y5.36520
G01 X11.37950 Y5.37330
G01 X11.35781 Y5.38164
G01 X11.34021 Y5.38661
G01 X11.31734 Y5.39086
G01 X11.29911 Y5.39253
G01 X11.27587 Y5.39253
G01 X11.25766 Y5.39086
G01 X11.23480 Y5.38661
G01 X11.21719 Y5.38164
G01 X11.19548 Y5.37333
G01 X11.17907 Y5.36523
G01 X11.15926 Y5.35309
G01 X11.14457 Y5.34214
G01 X11.12733 Y5.32659
G01 X11.11491 Y5.31313
G01 X11.10076 Y5.29472
G01 X11.09098 Y5.27922
G01 X11.08044 Y5.25852
G01 X11.07366 Y5.24153
G01 X11.06705 Y5.21923
G01 X11.06484 Y5.21034
G01 X11.01940 Y4.98192
G01 X10.93584 Y4.78022
G01 X10.81463 Y4.59878
G01 X10.66027 Y4.44443
G01 X10.47881 Y4.32317
G01 X10.27716 Y4.23965
G01 X10.06309 Y4.19706
G01 X9.84486 Y4.19706
G01 X9.63078 Y4.23965
G01 X9.42913 Y4.32317
G01 X9.24768 Y4.44443
G01 X9.09332 Y4.59878
G01 X8.97206 Y4.78027
G01 X8.88855 Y4.98187
G01 X8.84313 Y5.21031
G01 X8.84092 Y5.21923
G01 X8.83434 Y5.24150
G01 X8.82756 Y5.25850
G01 X8.81699 Y5.27920
G01 X8.80724 Y5.29469
G01 X8.79309 Y5.31313
G01 X8.78067 Y5.32657
G01 X8.76340 Y5.34211
G01 X8.74874 Y5.35306
G01 X8.72891 Y5.36520
G01 X8.71250 Y5.37330
G01 X8.69081 Y5.38164
G01 X8.67320 Y5.38661
G01 X8.65034 Y5.39086
G01 X8.63211 Y5.39253
G01 X8.60887 Y5.39253
G01 X8.59065 Y5.39086
G01 X8.56780 Y5.38661
G01 X8.55019 Y5.38164
G01 X8.52850 Y5.37333
G01 X8.51207 Y5.36523
G01 X8.49226 Y5.35309
G01 X8.47760 Y5.34214
G01 X8.46033 Y5.32659
G01 X8.44791 Y5.31313
G01 X8.43376 Y5.29472
G01 X8.42398 Y5.27922
G01 X8.41344 Y5.25852
G01 X8.40666 Y5.24153
G01 X8.40005 Y5.21923
G01 X8.39784 Y5.21034
G01 X8.35240 Y4.98189
G01 X8.26889 Y4.78024
G01 X8.14763 Y4.59878
G01 X7.99327 Y4.44443
G01 X7.81181 Y4.32317
G01 X7.61016 Y4.23965
G01 X7.39609 Y4.19706
G01 X7.17786 Y4.19706
G01 X6.96379 Y4.23965
G01 X6.76213 Y4.32317
G01 X6.58068 Y4.44443
G01 X6.42632 Y4.59878
G01 X6.30506 Y4.78024
G01 X6.22155 Y4.98189
G01 X6.17895 Y5.19599
G01 X6.17895 Y5.41417
G01 X6.22155 Y5.62827
G01 X6.30506 Y5.82992
G01 X6.42632 Y6.01138
G01 X6.58065 Y6.16571
G01 X6.65309 Y6.21412
G01 X6.65970 Y6.21892
G01 X6.67595 Y6.23182
G01 X6.68789 Y6.24300
G01 X6.70181 Y6.25839
G01 X6.71177 Y6.27135
G01 X6.72302 Y6.28880
G01 X6.73071 Y6.30322
G01 X6.73897 Y6.32225
G01 X6.74423 Y6.33774
G01 X6.74928 Y6.35786
G01 X6.75195 Y6.37399
G01 X6.75363 Y6.39469
G01 X6.75398 Y6.40287
G01 X6.75398 Y7.99997
G01 X6.75350 Y8.00975
G01 X6.75106 Y8.03454
G01 X6.74722 Y8.05374
G01 X6.74001 Y8.07757
G01 X6.73249 Y8.09568
G01 X6.72076 Y8.11762
G01 X6.70989 Y8.13393
G01 X6.69409 Y8.15318
G01 X6.68024 Y8.16703
G01 X6.66099 Y8.18282
G01 X6.64471 Y8.19372
G01 X6.62274 Y8.20546
G01 X6.60465 Y8.21297
G01 X6.58083 Y8.22019
G01 X6.56160 Y8.22402
G01 X6.53684 Y8.22646
G01 X6.51723 Y8.22649
G01 X6.49246 Y8.22405
G01 X6.47323 Y8.22024
G01 X6.44941 Y8.21300
G01 X6.43130 Y8.20551
G01 X6.40935 Y8.19380
G01 X6.39305 Y8.18290
G01 X6.37379 Y8.16713
G01 X6.35993 Y8.15328
G01 X6.34413 Y8.13403
G01 X6.34118 Y8.13007
G01 X6.17202 Y7.96088
G01 X6.03587 Y7.86990
G01 X6.02924 Y7.86510
G01 X6.01299 Y7.85219
G01 X6.00107 Y7.84102
G01 X5.98713 Y7.82562
G01 X5.97717 Y7.81267
G01 X5.96592 Y7.79522
G01 X5.95822 Y7.78082
G01 X5.94997 Y7.76177
G01 X5.94471 Y7.74627
G01 X5.93966 Y7.72616
G01 X5.93699 Y7.71003
G01 X5.93531 Y7.68933
G01 X5.93496 Y7.68117
G01 X5.93496 Y7.67940
G01 X5.93508 Y7.67447
G01 X5.93569 Y7.66200
G01 X5.93608 Y7.65710
G01 X5.93755 Y7.64206
G01 X5.92726 Y7.53759
G01 X5.89678 Y7.43711
G01 X5.84730 Y7.34452
G01 X5.78065 Y7.26332
G01 X5.76889 Y7.25367
G01 X5.76518 Y7.25047
G01 X5.75602 Y7.24214
G01 X5.75246 Y7.23876
G01 X5.09247 Y6.57879
G01 X5.08713 Y6.57302
G01 X5.07420 Y6.55786
G01 X5.06498 Y6.54518
G01 X5.05457 Y6.52819
G01 X5.04743 Y6.51420
G01 X5.03981 Y6.49578
G01 X5.03496 Y6.48087
G01 X5.03031 Y6.46149
G01 X5.02785 Y6.44600
G01 X5.02630 Y6.42611
G01 X5.02597 Y6.41829
G01 X5.02597 Y6.40287
G01 X5.02632 Y6.39469
G01 X5.02800 Y6.37399
G01 X5.03067 Y6.35786
G01 X5.03572 Y6.33774
G01 X5.04098 Y6.32225
G01 X5.04923 Y6.30322
G01 X5.05693 Y6.28880
G01 X5.06818 Y6.27135
G01 X5.07814 Y6.25839
G01 X5.09206 Y6.24300
G01 X5.10400 Y6.23182
G01 X5.12025 Y6.21892
G01 X5.12686 Y6.21412
G01 X5.19927 Y6.16573
G01 X5.35363 Y6.01138
G01 X5.47489 Y5.82992
G01 X5.55840 Y5.62827
G01 X5.60097 Y5.41422
G01 X5.60097 Y5.19594
G01 X5.55840 Y4.98189
G01 X5.47489 Y4.78024
G01 X5.35363 Y4.59878
G01 X5.19927 Y4.44443
G01 X5.01781 Y4.32317
G01 X4.81616 Y4.23965
G01 X4.60209 Y4.19706
G01 X4.38386 Y4.19706
G01 X4.16978 Y4.23965
G01 X3.96813 Y4.32317
G01 X3.78668 Y4.44443
G01 X3.63232 Y4.59878
G01 X3.51106 Y4.78024
G01 X3.42755 Y4.98189
G01 X3.38495 Y5.19599
G04 P0 ( dwell for no time -- G64 should not smooth over this point )
G00 Z5.00000 ( retract )

G00 X3.69298 Y5.30511 ( rapid move to begin. )
G01 F300.00000
( Mill infeed pass 1/1 )
G01 Z-0.05000
G04 P0 ( dwell for no time -- G64 should not smooth over this point )
G01 F600.00000
G01 X3.69298 Y5.30511
G01 X3.69353 Y5.29464
G01 X3.70883 Y5.14910
G01 X3.71048 Y5.13876
G01 X3.71317 Y5.12865
G01 X3.75841 Y4.98949
G01 X3.76214 Y4.97971
G01 X3.76692 Y4.97038
G01 X3.84007 Y4.84364
G01 X3.84578 Y4.83488
G01 X3.85236 Y4.82672
G01 X3.95028 Y4.71798
G01 X3.95770 Y4.71057
G01 X3.96582 Y4.70399
G01 X4.08421 Y4.61799
G01 X4.09298 Y4.61227
G01 X4.10232 Y4.60752
G01 X4.23600 Y4.54801
G01 X4.24578 Y4.54425
G01 X4.25589 Y4.54153
G01 X4.39902 Y4.51110
G01 X4.40936 Y4.50948
G01 X4.41982 Y4.50892
G01 X4.56615 Y4.50892
G01 X4.57662 Y4.50948
G01 X4.58695 Y4.51110
G01 X4.73008 Y4.54153
G01 X4.74019 Y4.54425
G01 X4.74997 Y4.54801
G01 X4.88365 Y4.60752
G01 X4.89300 Y4.61227
G01 X4.90176 Y4.61799
G01 X5.02015 Y4.70399
G01 X5.02828 Y4.71057
G01 X5.03570 Y4.71798
G01 X5.13361 Y4.82672
G01 X5.14019 Y4.83488
G01 X5.14591 Y4.84364
G01 X5.21906 Y4.97038
G01 X5.22383 Y4.97971
G01 X5.22757 Y4.98949
G01 X5.27281 Y5.12865
G01 X5.27550 Y5.13876
G01 X5.27715 Y5.14910
G01 X5.29244 Y5.29464
G01 X5.29300 Y5.30511
G01 X5.29244 Y5.31555
G01 X5.27715 Y5.46109
G01 X5.27550 Y5.47143
G01 X5.27281 Y5.48153
G01 X5.22757 Y5.62070
G01 X5.22383 Y5.63048
G01 X5.21906 Y5.63980
G01 X5.14591 Y5.76655
G01 X5.14019 Y5.77531
G01 X5.13361 Y5.78346
G01 X5.03570 Y5.89220
G01 X5.02828 Y5.89962
G01 X5.02015 Y5.90620
G01 X4.90176 Y5.99220
G01 X4.89300 Y5.99792
G01 X4.88365 Y6.00267
G01 X4.74997 Y6.06218
G01 X4.74019 Y6.06594
G01 X4.73008 Y6.06866
G01 X4.71799 Y6.07122
G01 X4.71799 Y6.63988
G01 X5.56107 Y7.48298
G01 X5.56767 Y7.49024
G01 X5.58322 Y7.50919
G01 X5.59412 Y7.52550
G01 X5.60565 Y7.54709
G01 X5.60984 Y7.55598
G01 X5.61317 Y7.56520
G01 X5.62028 Y7.58867
G01 X5.62267 Y7.59817
G01 X5.62409 Y7.60790
G01 X5.62650 Y7.63228
G01 X5.62698 Y7.64208
G01 X5.62698 Y8.03141
G01 X5.66999 Y8.04056
G01 X5.68009 Y8.04328
G01 X5.68987 Y8.04704
G01 X5.84265 Y8.11506
G01 X5.85198 Y8.11981
G01 X5.86076 Y8.12550
G01 X5.99607 Y8.22382
G01 X6.00420 Y8.23040
G01 X6.01162 Y8.23779
G01 X6.12353 Y8.36210
G01 X6.13011 Y8.37023
G01 X6.13580 Y8.37899
G01 X6.21944 Y8.52384
G01 X6.22419 Y8.53317
G01 X6.22792 Y8.54295
G01 X6.27961 Y8.70200
G01 X6.28233 Y8.71211
G01 X6.28395 Y8.72245
G01 X6.30143 Y8.88877
G01 X6.30199 Y8.89923
G01 X6.30143 Y8.90967
G01 X6.28395 Y9.07602
G01 X6.28233 Y9.08635
G01 X6.27961 Y9.09646
G01 X6.22792 Y9.25552
G01 X6.22419 Y9.26530
G01 X6.21944 Y9.27462
G01 X6.13580 Y9.41945
G01 X6.13011 Y9.42824
G01 X6.12353 Y9.43637
G01 X6.01162 Y9.56065
G01 X6.00420 Y9.56806
G01 X5.99607 Y9.57464
G01 X5.86076 Y9.67294
G01 X5.85198 Y9.67866
G01 X5.84265 Y9.68341
G01 X5.68987 Y9.75143
G01 X5.68009 Y9.75519
G01 X5.66999 Y9.75788
G01 X5.50641 Y9.79265
G01 X5.49607 Y9.79430
G01 X5.48561 Y9.79484
G01 X5.31837 Y9.79484
G01 X5.30791 Y9.79430
G01 X5.29757 Y9.79265
G01 X5.13399 Y9.75788
G01 X5.12386 Y9.75519
G01 X5.11411 Y9.75143
G01 X4.96133 Y9.68341
G01 X4.95198 Y9.67866
G01 X4.94322 Y9.67294
G01 X4.80791 Y9.57464
G01 X4.79978 Y9.56806
G01 X4.79236 Y9.56065
G01 X4.68045 Y9.43637
G01 X4.67387 Y9.42824
G01 X4.66818 Y9.41945
G01 X4.58454 Y9.27462
G01 X4.57979 Y9.26530
G01 X4.57603 Y9.25552
G01 X4.52437 Y9.09646
G01 X4.52165 Y9.08635
G01 X4.52003 Y9.07602
G01 X4.50253 Y8.90967
G01 X4.50197 Y8.89923
G01 X4.50253 Y8.88877
G01 X4.52003 Y8.72245
G01 X4.52165 Y8.71211
G01 X4.52437 Y8.70200
G01 X4.57603 Y8.54295
G01 X4.57979 Y8.53317
G01 X4.58454 Y8.52384
G01 X4.66818 Y8.37899
G01 X4.67387 Y8.37023
G01 X4.68045 Y8.36210
G01 X4.79236 Y8.23779
G01 X4.79978 Y8.23040
G01 X4.80791 Y8.22382
G01 X4.94322 Y8.12550
G01 X4.95198 Y8.11981
G01 X4.96133 Y8.11506
G01 X5.11411 Y8.04704
G01 X5.12386 Y8.04328
G01 X5.13399 Y8.04056
G01 X5.17697 Y8.03141
G01 X5.17697 Y7.73528
G01 X4.33389 Y6.89217
G01 X4.32727 Y6.88491
G01 X4.31172 Y6.86594
G01 X4.30085 Y6.84965
G01 X4.28932 Y6.82806
G01 X4.28510 Y6.81917
G01 X4.28180 Y6.80995
G01 X4.27469 Y6.78648
G01 X4.27230 Y6.77699
G01 X4.27088 Y6.76726
G01 X4.26846 Y6.74287
G01 X4.26798 Y6.73307
G01 X4.26798 Y6.07122
G01 X4.25589 Y6.06866
G01 X4.24578 Y6.06594
G01 X4.23600 Y6.06218
G01 X4.10232 Y6.00267
G01 X4.09298 Y5.99792
G01 X4.08421 Y5.99220
G01 X3.96582 Y5.90620
G01 X3.95770 Y5.89962
G01 X3.95028 Y5.89220
G01 X3.85236 Y5.78346
G01 X3.84578 Y5.77531
G01 X3.84007 Y5.76655
G01 X3.76692 Y5.63980
G01 X3.76214 Y5.63048
G01 X3.75841 Y5.62070
G01 X3.71317 Y5.48153
G01 X3.71048 Y5.47143
G01 X3.70883 Y5.46109
G01 X3.69353 Y5.31555
G01 X3.69298 Y5.30511
G04 P0 ( dwell for no time -- G64 should not smooth over this point )
G00 Z5.00000 ( retract )

G00 X6.48698 Y5.30511 ( rapid move to begin. )
G01 F300.00000
( Mill infeed pass 1/1 )
G01 Z-0.05000
G04 P0 ( dwell for no time -- G64 should not smooth over this point )
G01 F600.00000
G01 X6.48698 Y5.30511
G01 X6.48754 Y5.29464
G01 X6.50283 Y5.14910
G01 X6.50448 Y5.13876
G01 X6.50717 Y5.12865
G01 X6.55241 Y4.98949
G01 X6.55614 Y4.97971
G01 X6.56092 Y4.97038
G01 X6.63407 Y4.84364
G01 X6.63978 Y4.83488
G01 X6.64636 Y4.82672
G01 X6.74428 Y4.71798
G01 X6.75169 Y4.71057
G01 X6.75982 Y4.70399
G01 X6.87821 Y4.61799
G01 X6.88698 Y4.61227
G01 X6.89632 Y4.60752
G01 X7.03000 Y4.54801
G01 X7.03978 Y4.54425
G01 X7.04989 Y4.54153
G01 X7.19302 Y4.51110
G01 X7.20336 Y4.50948
G01 X7.21382 Y4.50892
G01 X7.36015 Y4.50892
G01 X7.37062 Y4.50948
G01 X7.38095 Y4.51110
G01 X7.52408 Y4.54153
G01 X7.53419 Y4.54425
G01 X7.54397 Y4.54801
G01 X7.67765 Y4.60752
G01 X7.68700 Y4.61227
G01 X7.69576 Y4.61799
G01 X7.81415 Y4.70399
G01 X7.82228 Y4.71057
G01 X7.82970 Y4.71798
G01 X7.92761 Y4.82672
G01 X7.93419 Y4.83488
G01 X7.93991 Y4.84364
G01 X8.01306 Y4.97038
G01 X8.01783 Y4.97971
G01 X8.02157 Y4.98949
G01 X8.06681 Y5.12865
G01 X8.06950 Y5.13876
G01 X8.07115 Y5.14910
G01 X8.08644 Y5.29464
G01 X8.08700 Y5.30511
G01 X8.08644 Y5.31555
G01 X8.07115 Y5.46109
G01 X8.06950 Y5.47143
G01 X8.06681 Y5.48153
G01 X8.02157 Y5.62070
G01 X8.01783 Y5.63048
G01 X8.01306 Y5.63980
G01 X7.93991 Y5.76655
G01 X7.93419 Y5.77531
G01 X7.92761 Y5.78346
G01 X7.82970 Y5.89220
G01 X7.82228 Y5.89962
G01 X7.81415 Y5.90620
G01 X7.69576 Y5.99220
G01 X7.68700 Y5.99792
G01 X7.67765 Y6.00267
G01 X7.54397 Y6.06218
G01 X7.53419 Y6.06594
G01 X7.52408 Y6.06866
G01 X7.51199 Y6.07122
G01 X7.51199 Y8.11031
G01 X7.65411 Y8.04704
G01 X7.66386 Y8.04328
G01 X7.67399 Y8.04056
G01 X7.83757 Y8.00579
G01 X7.84791 Y8.00416
G01 X7.85837 Y8.00360
G01 X8.02561 Y8.00360
G01 X8.03607 Y8.00416
G01 X8.04641 Y8.00579
G01 X8.20999 Y8.04056
G01 X8.22009 Y8.04328
G01 X8.22987 Y8.04704
G01 X8.38265 Y8.11506
G01 X8.39198 Y8.11981
G01 X8.40076 Y8.12550
G01 X8.53607 Y8.22382
G01 X8.54420 Y8.23040
G01 X8.55162 Y8.23779
G01 X8.66353 Y8.36210
G01 X8.67011 Y8.37023
G01 X8.67580 Y8.37899
G01 X8.75944 Y8.52384
G01 X8.76419 Y8.53317
G01 X8.76792 Y8.54295
G01 X8.81961 Y8.70200
G01 X8.82233 Y8.71211
G01 X8.82395 Y8.72245
G01 X8.84143 Y8.88877
G01 X8.84199 Y8.89923
G01 X8.84143 Y8.90967
G01 X8.82395 Y9.07602
G01 X8.82233 Y9.08635
G01 X8.81961 Y9.09646
G01 X8.76792 Y9.25552
G01 X8.76419 Y9.26530
G01 X8.75944 Y9.27462
G01 X8.67580 Y9.41945
G01 X8.67011 Y9.42824
G01 X8.66353 Y9.43637
G01 X8.55162 Y9.56065
G01 X8.54420 Y9.56806
G01 X8.53607 Y9.57464
G01 X8.40076 Y9.67294
G01 X8.39198 Y9.67866
G01 X8.38265 Y9.68341
G01 X8.22987 Y9.75143
G01 X8.22009 Y9.75519
G01 X8.20999 Y9.75788
G01 X8.04641 Y9.79265
G01 X8.03607 Y9.79430
G01 X8.02561 Y9.79484
G01 X7.85837 Y9.79484
G01 X7.84791 Y9.79430
G01 X7.83757 Y9.79265
G01 X7.67399 Y9.75788
G01 X7.66386 Y9.75519
G01 X7.65411 Y9.75143
G01 X7.50133 Y9.68341
G01 X7.49198 Y9.67866
G01 X7.48321 Y9.67294
G01 X7.34791 Y9.57464
G01 X7.33978 Y9.56806
G01 X7.33236 Y9.56065
G01 X7.22045 Y9.43637
G01 X7.21387 Y9.42824
G01 X7.20818 Y9.41945
G01 X7.12454 Y9.27462
G01 X7.11979 Y9.26530
G01 X7.11603 Y9.25552
G01 X7.06437 Y9.09646
G01 X7.06165 Y9.08635
G01 X7.06003 Y9.07602
G01 X7.04253 Y8.90967
G01 X7.04199 Y8.89923
G01 X7.04253 Y8.88877
G01 X7.06003 Y8.72245
G01 X7.06165 Y8.71211
G01 X7.06437 Y8.70200
G01 X7.11603 Y8.54295
G01 X7.11979 Y8.53317
G01 X7.12457 Y8.52382
G01 X7.16991 Y8.44531
G01 X7.12789 Y8.40330
G01 X7.12129 Y8.39603
G01 X7.10575 Y8.37708
G01 X7.09485 Y8.36078
G01 X7.08332 Y8.33919
G01 X7.07580 Y8.32108
G01 X7.06869 Y8.29761
G01 X7.06488 Y8.27838
G01 X7.06246 Y8.25400
G01 X7.06198 Y8.24422
G01 X7.06198 Y6.07122
G01 X7.04989 Y6.06866
G01 X7.03978 Y6.06594
G01 X7.03000 Y6.06218
G01 X6.89632 Y6.00267
G01 X6.88698 Y5.99792
G01 X6.87821 Y5.99220
G01 X6.75982 Y5.90620
G01 X6.75169 Y5.89962
G01 X6.74428 Y5.89220
G01 X6.64636 Y5.78346
G01 X6.63978 Y5.77531
G01 X6.63407 Y5.76655
G01 X6.56092 Y5.63980
G01 X6.55614 Y5.63048
G01 X6.55241 Y5.62070
G01 X6.50717 Y5.48153
G01 X6.50448 Y5.47143
G01 X6.50283 Y5.46109
G01 X6.48754 Y5.31555
G01 X6.48698 Y5.30511
G04 P0 ( dwell for no time -- G64 should not smooth over this point )
G00 Z5.00000 ( retract )

G00 X9.15398 Y5.30511 ( rapid move to begin. )
G01 F300.00000
( Mill infeed pass 1/1 )
G01 Z-0.05000
G04 P0 ( dwell for no time -- G64 should not smooth over this point )
G01 F600.00000
G01 X9.15398 Y5.30511
G01 X9.15453 Y5.29464
G01 X9.16983 Y5.14910
G01 X9.17148 Y5.13876
G01 X9.17417 Y5.12865
G01 X9.21941 Y4.98949
G01 X9.22314 Y4.97971
G01 X9.22792 Y4.97038
G01 X9.30107 Y4.84364
G01 X9.30678 Y4.83488
G01 X9.31336 Y4.82672
G01 X9.41128 Y4.71798
G01 X9.41870 Y4.71057
G01 X9.42682 Y4.70399
G01 X9.54521 Y4.61799
G01 X9.55398 Y4.61227
G01 X9.56332 Y4.60752
G01 X9.69700 Y4.54801
G01 X9.70678 Y4.54425
G01 X9.71689 Y4.54153
G01 X9.86002 Y4.51110
G01 X9.87036 Y4.50948
G01 X9.88082 Y4.50892
G01 X10.02715 Y4.50892
G01 X10.03762 Y4.50948
G01 X10.04795 Y4.51110
G01 X10.19108 Y4.54153
G01 X10.20119 Y4.54425
G01 X10.21097 Y4.54801
G01 X10.34465 Y4.60752
G01 X10.35400 Y4.61227
G01 X10.36276 Y4.61799
G01 X10.48115 Y4.70399
G01 X10.48928 Y4.71057
G01 X10.49670 Y4.71798
G01 X10.59461 Y4.82672
G01 X10.60119 Y4.83488
G01 X10.60691 Y4.84364
G01 X10.68003 Y4.97038
G01 X10.68483 Y4.97971
G01 X10.68857 Y4.98949
G01 X10.73378 Y5.12865
G01 X10.73650 Y5.13876
G01 X10.73815 Y5.14910
G01 X10.75344 Y5.29464
G01 X10.75397 Y5.30511
G01 X10.75344 Y5.31555
G01 X10.73815 Y5.46109
G01 X10.73650 Y5.47143
G01 X10.73378 Y5.48153
G01 X10.68857 Y5.62070
G01 X10.68483 Y5.63048
G01 X10.68003 Y5.63980
G01 X10.65265 Y5.68733
G01 X10.66322 Y5.70020
G01 X10.67412 Y5.71651
G01 X10.68562 Y5.73810
G01 X10.68984 Y5.74699
G01 X10.69317 Y5.75621
G01 X10.70025 Y5.77968
G01 X10.70266 Y5.78918
G01 X10.70406 Y5.79891
G01 X10.70650 Y5.82329
G01 X10.70698 Y5.83310
G01 X10.70698 Y8.03141
G01 X10.74996 Y8.04056
G01 X10.76007 Y8.04328
G01 X10.76987 Y8.04704
G01 X10.92265 Y8.11506
G01 X10.93198 Y8.11981
G01 X10.94076 Y8.12550
G01 X11.07605 Y8.22382
G01 X11.08417 Y8.23040
G01 X11.09162 Y8.23779
G01 X11.20353 Y8.36210
G01 X11.21008 Y8.37023
G01 X11.21577 Y8.37899
G01 X11.29944 Y8.52384
G01 X11.30419 Y8.53317
G01 X11.30792 Y8.54295
G01 X11.35961 Y8.70200
G01 X11.36233 Y8.71211
G01 X11.36395 Y8.72245
G01 X11.38143 Y8.88877
G01 X11.38199 Y8.89923
G01 X11.38143 Y8.90967
G01 X11.36395 Y9.07602
G01 X11.36233 Y9.08635
G01 X11.35961 Y9.09646
G01 X11.30792 Y9.25552
G01 X11.30419 Y9.26530
G01 X11.29944 Y9.27462
G01 X11.21577 Y9.41945
G01 X11.21008 Y9.42824
G01 X11.20353 Y9.43637
G01 X11.09162 Y9.56065
G01 X11.08417 Y9.56806
G01 X11.07605 Y9.57464
G01 X10.94076 Y9.67294
G01 X10.93198 Y9.67866
G01 X10.92265 Y9.68341
G01 X10.76987 Y9.75143
G01 X10.76007 Y9.75519
G01 X10.74996 Y9.75788
G01 X10.58641 Y9.79265
G01 X10.57607 Y9.79430
G01 X10.56561 Y9.79484
G01 X10.39837 Y9.79484
G01 X10.38791 Y9.79430
G01 X10.37757 Y9.79265
G01 X10.21399 Y9.75788
G01 X10.20386 Y9.75519
G01 X10.19411 Y9.75143
G01 X10.04133 Y9.68341
G01 X10.03198 Y9.67866
G01 X10.02322 Y9.67294
G01 X9.88791 Y9.57464
G01 X9.87978 Y9.56806
G01 X9.87236 Y9.56065
G01 X9.76045 Y9.43637
G01 X9.75387 Y9.42824
G01 X9.74818 Y9.41945
G01 X9.66454 Y9.27462
G01 X9.65979 Y9.26530
G01 X9.65603 Y9.25552
G01 X9.60437 Y9.09646
G01 X9.60165 Y9.08635
G01 X9.60003 Y9.07602
G01 X9.58252 Y8.90967
G01 X9.58199 Y8.89923
G01 X9.58252 Y8.88877
G01 X9.60003 Y8.72245
G01 X9.60165 Y8.71211
G01 X9.60437 Y8.70200
G01 X9.65603 Y8.54295
G01 X9.65979 Y8.53317
G01 X9.66454 Y8.52384
G01 X9.74818 Y8.37899
G01 X9.75387 Y8.37023
G01 X9.76045 Y8.36210
G01 X9.87236 Y8.23779
G01 X9.87978 Y8.23040
G01 X9.88791 Y8.22382
G01 X10.02322 Y8.12550
G01 X10.03198 Y8.11981
G01 X10.04133 Y8.11506
G01 X10.19411 Y8.04704
G01 X10.20386 Y8.04328
G01 X10.21399 Y8.04056
G01 X10.25697 Y8.03144
G01 X10.25697 Y6.04171
G01 X10.21097 Y6.06218
G01 X10.20119 Y6.06594
G01 X10.19108 Y6.06866
G01 X10.04795 Y6.09908
G01 X10.03762 Y6.10071
G01 X10.02715 Y6.10127
G01 X9.88082 Y6.10127
G01 X9.87036 Y6.10071
G01 X9.86002 Y6.09908
G01 X9.71689 Y6.06866
G01 X9.70678 Y6.06594
G01 X9.69700 Y6.06218
G01 X9.56332 Y6.00267
G01 X9.55398 Y5.99792
G01 X9.54521 Y5.99220
G01 X9.42682 Y5.90620
G01 X9.41870 Y5.89962
G01 X9.41128 Y5.89220
G01 X9.31336 Y5.78346
G01 X9.30678 Y5.77531
G01 X9.30107 Y5.76655
G01 X9.22792 Y5.63980
G01 X9.22314 Y5.63048
G01 X9.21941 Y5.62070
G01 X9.17417 Y5.48153
G01 X9.17148 Y5.47143
G01 X9.16983 Y5.46109
G01 X9.15453 Y5.31555
G01 X9.15398 Y5.30511
G04 P0 ( dwell for no time -- G64 should not smooth over this point )
G00 Z5.00000 ( retract )

G00 X11.82098 Y5.30511 ( rapid move to begin. )
G01 F300.00000
( Mill infeed pass 1/1 )
G01 Z-0.05000
G04 P0 ( dwell for no time -- G64 should not smooth over this point )
G01 F600.00000
G01 X11.82098 Y5.30511
G01 X11.82154 Y5.29464
G01 X11.83683 Y5.14910
G01 X11.83848 Y5.13876
G01 X11.84117 Y5.12865
G01 X11.88641 Y4.98949
G01 X11.89014 Y4.97971
G01 X11.89492 Y4.97038
G01 X11.96807 Y4.84364
G01 X11.97378 Y4.83488
G01 X11.98036 Y4.82672
G01 X12.07828 Y4.71798
G01 X12.08569 Y4.71057
G01 X12.09382 Y4.70399
G01 X12.21221 Y4.61799
G01 X12.22098 Y4.61227
G01 X12.23032 Y4.60752
G01 X12.36400 Y4.54801
G01 X12.37378 Y4.54425
G01 X12.38389 Y4.54153
G01 X12.52702 Y4.51110
G01 X12.53736 Y4.50948
G01 X12.54782 Y4.50892
G01 X12.69415 Y4.50892
G01 X12.70462 Y4.50948
G01 X12.71495 Y4.51110
G01 X12.85808 Y4.54153
G01 X12.86819 Y4.54425
G01 X12.87797 Y4.54801
G01 X13.01165 Y4.60752
G01 X13.02100 Y4.61227
G01 X13.02976 Y4.61799
G01 X13.14815 Y4.70399
G01 X13.15628 Y4.71057
G01 X13.16370 Y4.71798
G01 X13.26161 Y4.82672
G01 X13.26819 Y4.83488
G01 X13.27391 Y4.84364
G01 X13.34706 Y4.97038
G01 X13.35183 Y4.97971
G01 X13.35557 Y4.98949
G01 X13.40081 Y5.12865
G01 X13.40350 Y5.13876
G01 X13.40515 Y5.14910
G01 X13.42044 Y5.29464
G01 X13.42100 Y5.30511
G01 X13.42044 Y5.31555
G01 X13.40515 Y5.46109
G01 X13.40350 Y5.47143
G01 X13.40081 Y5.48153
G01 X13.35557 Y5.62070
G01 X13.35183 Y5.63048
G01 X13.34706 Y5.63980
G01 X13.27391 Y5.76655
G01 X13.26819 Y5.77531
G01 X13.26161 Y5.78346
G01 X13.16370 Y5.89220
G01 X13.15628 Y5.89962
G01 X13.14815 Y5.90620
G01 X13.02976 Y5.99220
G01 X13.02100 Y5.99792
G01 X13.01165 Y6.00267
G01 X12.87797 Y6.06218
G01 X12.86819 Y6.06594
G01 X12.85808 Y6.06866
G01 X12.84599 Y6.07122
G01 X12.84599 Y8.02100
G01 X12.91757 Y8.00579
G01 X12.92791 Y8.00416
G01 X12.93837 Y8.00360
G01 X13.10561 Y8.00360
G01 X13.11607 Y8.00416
G01 X13.12641 Y8.00579
G01 X13.28999 Y8.04056
G01 X13.30009 Y8.04328
G01 X13.30987 Y8.04704
G01 X13.46265 Y8.11506
G01 X13.47198 Y8.11981
G01 X13.48076 Y8.12550
G01 X13.61607 Y8.22382
G01 X13.62420 Y8.23040
G01 X13.63162 Y8.23779
G01 X13.74353 Y8.36210
G01 X13.75011 Y8.37023
G01 X13.75580 Y8.37899
G01 X13.83944 Y8.52384
G01 X13.84419 Y8.53317
G01 X13.84792 Y8.54295
G01 X13.89961 Y8.70200
G01 X13.90233 Y8.71211
G01 X13.90395 Y8.72245
G01 X13.92143 Y8.88877
G01 X13.92199 Y8.89923
G01 X13.92143 Y8.90967
G01 X13.90395 Y9.07602
G01 X13.90233 Y9.08635
G01 X13.89961 Y9.09646
G01 X13.84792 Y9.25552
G01 X13.84419 Y9.26530
G01 X13.83944 Y9.27462
G01 X13.75580 Y9.41945
G01 X13.75011 Y9.42824
G01 X13.74353 Y9.43637
G01 X13.63162 Y9.56065
G01 X13.62420 Y9.56806
G01 X13.61607 Y9.57464
G01 X13.48076 Y9.67294
G01 X13.47198 Y9.67866
G01 X13.46265 Y9.68341
G01 X13.30987 Y9.75143
G01 X13.30009 Y9.75519
G01 X13.28999 Y9.75788
G01 X13.12641 Y9.79265
G01 X13.11607 Y9.79430
G01 X13.10561 Y9.79484
G01 X12.93837 Y9.79484
G01 X12.92791 Y9.79430
G01 X12.91757 Y9.79265
G01 X12.75399 Y9.75788
G01 X12.74386 Y9.75519
G01 X12.73411 Y9.75143
G01 X12.58133 Y9.68341
G01 X12.57198 Y9.67866
G01 X12.56322 Y9.67294
G01 X12.42791 Y9.57464
G01 X12.41978 Y9.56806
G01 X12.41236 Y9.56065
G01 X12.30045 Y9.43637
G01 X12.29387 Y9.42824
G01 X12.28818 Y9.41945
G01 X12.20454 Y9.27462
G01 X12.19979 Y9.26530
G01 X12.19603 Y9.25552
G01 X12.14437 Y9.09646
G01 X12.14165 Y9.08635
G01 X12.14003 Y9.07602
G01 X12.12252 Y8.90967
G01 X12.12199 Y8.89923
G01 X12.12252 Y8.88877
G01 X12.14003 Y8.72245
G01 X12.14165 Y8.71211
G01 X12.14437 Y8.70200
G01 X12.19603 Y8.54295
G01 X12.19979 Y8.53317
G01 X12.20454 Y8.52384
G01 X12.28818 Y8.37899
G01 X12.29387 Y8.37023
G01 X12.30045 Y8.36210
G01 X12.39598 Y8.25600
G01 X12.39598 Y6.07122
G01 X12.38389 Y6.06866
G01 X12.37378 Y6.06594
G01 X12.36400 Y6.06218
G01 X12.23032 Y6.00267
G01 X12.22098 Y5.99792
G01 X12.21221 Y5.99220
G01 X12.09382 Y5.90620
G01 X12.08569 Y5.89962
G01 X12.07828 Y5.89220
G01 X11.98036 Y5.78346
G01 X11.97378 Y5.77531
G01 X11.96807 Y5.76655
G01 X11.89492 Y5.63980
G01 X11.89014 Y5.63048
G01 X11.88641 Y5.62070
G01 X11.84117 Y5.48153
G01 X11.83848 Y5.47143
G01 X11.83683 Y5.46109
G01 X11.82154 Y5.31555
G01 X11.82098 Y5.30511
G04 P0 ( dwell for no time -- G64 should not smooth over this point )
G00 Z5.00000 ( retract )

G00 X14.61498 Y5.30511 ( rapid move to begin. )
G01 F300.00000
( Mill infeed pass 1/1 )
G01 Z-0.05000
G04 P0 ( dwell for no time -- G64 should not smooth over this point )
G01 F600.00000
G01 X14.61498 Y5.30511
G01 X14.61553 Y5.29464
G01 X14.63083 Y5.14910
G01 X14.63248 Y5.13876
G01 X14.63517 Y5.12865
G01 X14.68041 Y4.98949
G01 X14.68414 Y4.97971
G01 X14.68892 Y4.97038
G01 X14.76207 Y4.84364
G01 X14.76778 Y4.83488
G01 X14.77436 Y4.82672
G01 X14.87228 Y4.71798
G01 X14.87969 Y4.71057
G01 X14.88782 Y4.70399
G01 X15.00621 Y4.61799
G01 X15.01498 Y4.61227
G01 X15.02432 Y4.60752
G01 X15.15800 Y4.54801
G01 X15.16778 Y4.54425
G01 X15.17789 Y4.54153
G01 X15.32102 Y4.51110
G01 X15.33136 Y4.50948
G01 X15.34182 Y4.50892
G01 X15.48815 Y4.50892
G01 X15.49862 Y4.50948
G01 X15.50895 Y4.51110
G01 X15.65208 Y4.54153
G01 X15.66219 Y4.54425
G01 X15.67197 Y4.54801
G01 X15.80565 Y4.60752
G01 X15.81500 Y4.61227
G01 X15.82376 Y4.61799
G01 X15.94215 Y4.70399
G01 X15.95028 Y4.71057
G01 X15.95770 Y4.71798
G01 X16.05561 Y4.82672
G01 X16.06219 Y4.83488
G01 X16.06791 Y4.84364
G01 X16.14106 Y4.97038
G01 X16.14583 Y4.97971
G01 X16.14957 Y4.98949
G01 X16.19481 Y5.12865
G01 X16.19750 Y5.13876
G01 X16.19915 Y5.14910
G01 X16.21444 Y5.29464
G01 X16.21500 Y5.30511
G01 X16.21444 Y5.31555
G01 X16.19915 Y5.46109
G01 X16.19750 Y5.47143
G01 X16.19481 Y5.48153
G01 X16.14957 Y5.62070
G01 X16.14583 Y5.63048
G01 X16.14106 Y5.63980
G01 X16.06791 Y5.76655
G01 X16.06219 Y5.77531
G01 X16.05561 Y5.78346
G01 X15.95770 Y5.89220
G01 X15.95028 Y5.89962
G01 X15.94215 Y5.90620
G01 X15.82376 Y5.99220
G01 X15.81500 Y5.99792
G01 X15.80565 Y6.00267
G01 X15.67197 Y6.06218
G01 X15.66219 Y6.06594
G01 X15.65208 Y6.06866
G01 X15.63999 Y6.07122
G01 X15.63999 Y8.00360
G01 X15.64561 Y8.00360
G01 X15.65607 Y8.00416
G01 X15.66641 Y8.00579
G01 X15.82999 Y8.04056
G01 X15.84009 Y8.04328
G01 X15.84987 Y8.04704
G01 X16.00265 Y8.11506
G01 X16.01198 Y8.11981
G01 X16.02076 Y8.12550
G01 X16.15607 Y8.22382
G01 X16.16420 Y8.23040
G01 X16.17162 Y8.23779
G01 X16.28353 Y8.36210
G01 X16.29011 Y8.37023
G01 X16.29580 Y8.37899
G01 X16.37944 Y8.52384
G01 X16.38419 Y8.53317
G01 X16.38792 Y8.54295
G01 X16.43961 Y8.70200
G01 X16.44233 Y8.71211
G01 X16.44395 Y8.72245
G01 X16.46143 Y8.88877
G01 X16.46199 Y8.89923
G01 X16.46143 Y8.90967
G01 X16.44395 Y9.07602
G01 X16.44233 Y9.08635
G01 X16.43961 Y9.09646
G01 X16.38792 Y9.25552
G01 X16.38419 Y9.26530
G01 X16.37944 Y9.27462
G01 X16.29580 Y9.41945
G01 X16.29011 Y9.42824
G01 X16.28353 Y9.43637
G01 X16.17162 Y9.56065
G01 X16.16420 Y9.56806
G01 X16.15607 Y9.57464
G01 X16.02076 Y9.67294
G01 X16.01198 Y9.67866
G01 X16.00265 Y9.68341
G01 X15.84987 Y9.75143
G01 X15.84009 Y9.75519
G01 X15.82999 Y9.75788
G01 X15.66641 Y9.79265
G01 X15.65607 Y9.79430
G01 X15.64561 Y9.79484
G01 X15.47837 Y9.79484
G01 X15.46791 Y9.79430
G01 X15.45757 Y9.79265
G01 X15.29399 Y9.75788
G01 X15.28386 Y9.75519
G01 X15.27411 Y9.75143
G01 X15.12133 Y9.68341
G01 X15.11198 Y9.67866
G01 X15.10322 Y9.67294
G01 X14.96791 Y9.57464
G01 X14.95978 Y9.56806
G01 X14.95236 Y9.56065
G01 X14.84045 Y9.43637
G01 X14.83387 Y9.42824
G01 X14.82818 Y9.41945
G01 X14.74454 Y9.27462
G01 X14.73979 Y9.26530
G01 X14.73603 Y9.25552
G01 X14.68437 Y9.09646
G01 X14.68165 Y9.08635
G01 X14.68003 Y9.07602
G01 X14.66253 Y8.90967
G01 X14.66199 Y8.89923
G01 X14.66253 Y8.88877
G01 X14.68003 Y8.72245
G01 X14.68165 Y8.71211
G01 X14.68437 Y8.70200
G01 X14.73603 Y8.54295
G01 X14.73979 Y8.53317
G01 X14.74454 Y8.52384
G01 X14.82818 Y8.37899
G01 X14.83387 Y8.37023
G01 X14.84045 Y8.36210
G01 X14.95236 Y8.23779
G01 X14.95978 Y8.23040
G01 X14.96791 Y8.22382
G01 X15.10322 Y8.12550
G01 X15.11198 Y8.11981
G01 X15.12133 Y8.11506
G01 X15.18998 Y8.08448
G01 X15.18998 Y6.07122
G01 X15.17789 Y6.06866
G01 X15.16778 Y6.06594
G01 X15.15800 Y6.06218
G01 X15.02432 Y6.00267
G01 X15.01498 Y5.99792
G01 X15.00621 Y5.99220
G01 X14.88782 Y5.90620
G01 X14.87969 Y5.89962
G01 X14.87228 Y5.89220
G01 X14.77436 Y5.78346
G01 X14.76778 Y5.77531
G01 X14.76207 Y5.76655
G01 X14.68892 Y5.63980
G01 X14.68414 Y5.63048
G01 X14.68041 Y5.62070
G01 X14.63517 Y5.48153
G01 X14.63248 Y5.47143
G01 X14.63083 Y5.46109
G01 X14.61553 Y5.31555
G01 X14.61498 Y5.30511
G04 P0 ( dwell for no time -- G64 should not smooth over this point )
G00 Z5.00000 ( retract )

G00 X17.20199 Y8.89923 ( rapid move to begin. )
G01 F300.00000
( Mill infeed pass 1/1 )
G01 Z-0.05000
G04 P0 ( dwell for no time -- G64 should not smooth over this point )
G01 F600.00000
G01 X17.20199 Y8.89923
G01 X17.20253 Y8.88877
G01 X17.22003 Y8.72245
G01 X17.22165 Y8.71211
G01 X17.22437 Y8.70200
G01 X17.27603 Y8.54295
G01 X17.27979 Y8.53317
G01 X17.28454 Y8.52384
G01 X17.36818 Y8.37899
G01 X17.37387 Y8.37023
G01 X17.38045 Y8.36210
G01 X17.49236 Y8.23779
G01 X17.49978 Y8.23040
G01 X17.50791 Y8.22382
G01 X17.64321 Y8.12550
G01 X17.65198 Y8.11981
G01 X17.66133 Y8.11506
G01 X17.81411 Y8.04704
G01 X17.82386 Y8.04328
G01 X17.83399 Y8.04056
G01 X17.99757 Y8.00579
G01 X18.00791 Y8.00416
G01 X18.01837 Y8.00360
G01 X18.18561 Y8.00360
G01 X18.19607 Y8.00416
G01 X18.20641 Y8.00579
G01 X18.29610 Y8.02486
G01 X19.86160 Y6.45936
G01 X19.86160 Y4.06015
G01 X19.81542 Y4.02660
G01 X19.80729 Y4.02002
G01 X19.79988 Y4.01260
G01 X19.70196 Y3.90386
G01 X19.69538 Y3.89571
G01 X19.68967 Y3.88695
G01 X19.61652 Y3.76020
G01 X19.61174 Y3.75088
G01 X19.60801 Y3.74110
G01 X19.56277 Y3.60193
G01 X19.56008 Y3.59183
G01 X19.55843 Y3.58149
G01 X19.54313 Y3.43595
G01 X19.54258 Y3.42551
G01 X19.54313 Y3.41504
G01 X19.55843 Y3.26950
G01 X19.56008 Y3.25916
G01 X19.56277 Y3.24905
G01 X19.60801 Y3.10989
G01 X19.61174 Y3.10011
G01 X19.61652 Y3.09078
G01 X19.68967 Y2.96404
G01 X19.69538 Y2.95528
G01 X19.70196 Y2.94712
G01 X19.79988 Y2.83838
G01 X19.80729 Y2.83097
G01 X19.81542 Y2.82439
G01 X19.93381 Y2.73839
G01 X19.94258 Y2.73267
G01 X19.95192 Y2.72792
G01 X20.08560 Y2.66841
G01 X20.09538 Y2.66465
G01 X20.10549 Y2.66193
G01 X20.24862 Y2.63150
G01 X20.25896 Y2.62988
G01 X20.26942 Y2.62932
G01 X20.41575 Y2.62932
G01 X20.42622 Y2.62988
G01 X20.43655 Y2.63150
G01 X20.57968 Y2.66193
G01 X20.58979 Y2.66465
G01 X20.59957 Y2.66841
G01 X20.73325 Y2.72792
G01 X20.74260 Y2.73267
G01 X20.75136 Y2.73839
G01 X20.86975 Y2.82439
G01 X20.87788 Y2.83097
G01 X20.88530 Y2.83838
G01 X20.98321 Y2.94712
G01 X20.98979 Y2.95528
G01 X20.99551 Y2.96404
G01 X21.06866 Y3.09078
G01 X21.07343 Y3.10011
G01 X21.07717 Y3.10989
G01 X21.12241 Y3.24905
G01 X21.12510 Y3.25916
G01 X21.12675 Y3.26950
G01 X21.14204 Y3.41504
G01 X21.14260 Y3.42551
G01 X21.14204 Y3.43595
G01 X21.12675 Y3.58149
G01 X21.12510 Y3.59183
G01 X21.12241 Y3.60193
G01 X21.07717 Y3.74110
G01 X21.07343 Y3.75088
G01 X21.06866 Y3.76020
G01 X20.99551 Y3.88695
G01 X20.98979 Y3.89571
G01 X20.98321 Y3.90386
G01 X20.88530 Y4.01260
G01 X20.87788 Y4.02002
G01 X20.86975 Y4.02660
G01 X20.82357 Y4.06015
G01 X20.82360 Y6.65860
G01 X20.82312 Y6.66840
G01 X20.81578 Y6.74275
G01 X20.81435 Y6.75245
G01 X20.81197 Y6.76197
G01 X20.79028 Y6.83345
G01 X20.78697 Y6.84267
G01 X20.78278 Y6.85156
G01 X20.74758 Y6.91742
G01 X20.73668 Y6.93370
G01 X20.68928 Y6.99146
G01 X20.68271 Y6.99873
G01 X18.97956 Y8.70187
G01 X18.98233 Y8.71211
G01 X18.98395 Y8.72245
G01 X19.00143 Y8.88877
G01 X19.00199 Y8.89923
G01 X19.00143 Y8.90967
G01 X18.98395 Y9.07602
G01 X18.98233 Y9.08635
G01 X18.97961 Y9.09646
G01 X18.92792 Y9.25552
G01 X18.92419 Y9.26530
G01 X18.91944 Y9.27462
G01 X18.83580 Y9.41945
G01 X18.83011 Y9.42824
G01 X18.82353 Y9.43637
G01 X18.71162 Y9.56065
G01 X18.70420 Y9.56806
G01 X18.69607 Y9.57464
G01 X18.58299 Y9.65681
G01 X18.58296 Y11.23999
G01 X22.98786 Y15.64486
G01 X23.07757 Y15.62579
G01 X23.08791 Y15.62416
G01 X23.09837 Y15.62360
G01 X23.26561 Y15.62360
G01 X23.27607 Y15.62416
G01 X23.28641 Y15.62579
G01 X23.44999 Y15.66056
G01 X23.46009 Y15.66328
G01 X23.46987 Y15.66704
G01 X23.62263 Y15.73506
G01 X23.63195 Y15.73981
G01 X23.64076 Y15.74550
G01 X23.77607 Y15.84382
G01 X23.78420 Y15.85040
G01 X23.79162 Y15.85779
G01 X23.90350 Y15.98210
G01 X23.91011 Y15.99023
G01 X23.91580 Y15.99899
G01 X23.99941 Y16.14384
G01 X24.00419 Y16.15317
G01 X24.00792 Y16.16295
G01 X24.05961 Y16.32200
G01 X24.06233 Y16.33211
G01 X24.06393 Y16.34245
G01 X24.08143 Y16.50877
G01 X24.08196 Y16.51923
G01 X24.08143 Y16.52967
G01 X24.06393 Y16.69602
G01 X24.06233 Y16.70635
G01 X24.05961 Y16.71646
G01 X24.00792 Y16.87552
G01 X24.00419 Y16.88530
G01 X23.99941 Y16.89462
G01 X23.91580 Y17.03945
G01 X23.91011 Y17.04824
G01 X23.90350 Y17.05637
G01 X23.79162 Y17.18065
G01 X23.78420 Y17.18806
G01 X23.77607 Y17.19464
G01 X23.66294 Y17.27681
G01 X23.66299 Y18.33383
G01 X25.22847 Y19.89934
G01 X25.31818 Y19.88026
G01 X25.32852 Y19.87864
G01 X25.33896 Y19.87808
G01 X25.50622 Y19.87808
G01 X25.51666 Y19.87864
G01 X25.52699 Y19.88026
G01 X25.69060 Y19.91503
G01 X25.70070 Y19.91775
G01 X25.71048 Y19.92149
G01 X25.86326 Y19.98951
G01 X25.87259 Y19.99428
G01 X25.88137 Y19.99997
G01 X26.01668 Y20.09827
G01 X26.02481 Y20.10487
G01 X26.03220 Y20.11226
G01 X26.14411 Y20.23655
G01 X26.15069 Y20.24467
G01 X26.15641 Y20.25346
G01 X26.24002 Y20.39829
G01 X26.24477 Y20.40764
G01 X26.24853 Y20.41739
G01 X26.30022 Y20.57645
G01 X26.30291 Y20.58658
G01 X26.30456 Y20.59692
G01 X26.32204 Y20.76324
G01 X26.32260 Y20.77371
G01 X26.32204 Y20.78415
G01 X26.30456 Y20.95046
G01 X26.30291 Y20.96080
G01 X26.30022 Y20.97094
G01 X26.24853 Y21.12999
G01 X26.24477 Y21.13975
G01 X26.24002 Y21.14909
G01 X26.15641 Y21.29392
G01 X26.15069 Y21.30271
G01 X26.14411 Y21.31084
G01 X26.03220 Y21.43512
G01 X26.02481 Y21.44251
G01 X26.01668 Y21.44912
G01 X25.90360 Y21.53126
G01 X25.90360 Y26.41647
G01 X25.99024 Y26.50308
G01 X27.01000 Y26.50308
G01 X27.02735 Y26.50458
G01 X27.04419 Y26.50910
G01 X27.05999 Y26.51649
G01 X27.07426 Y26.52650
G01 X27.08658 Y26.53879
G01 X27.09659 Y26.55310
G01 X27.10395 Y26.56889
G01 X27.10847 Y26.58573
G01 X27.11000 Y26.60308
G01 X27.11000 Y28.20310
G01 X27.10807 Y28.22261
G01 X27.10238 Y28.24136
G01 X27.09313 Y28.25865
G01 X27.08069 Y28.27379
G01 X27.06555 Y28.28624
G01 X27.04825 Y28.29548
G01 X27.02951 Y28.30117
G01 X27.01000 Y28.30310
G01 X25.40998 Y28.30310
G01 X25.39263 Y28.30158
G01 X25.37579 Y28.29706
G01 X25.35999 Y28.28969
G01 X25.34571 Y28.27969
G01 X25.33340 Y28.26737
G01 X25.32339 Y28.25309
G01 X25.31602 Y28.23729
G01 X25.31150 Y28.22045
G01 X25.30998 Y28.20310
G01 X25.31000 Y27.18335
G01 X25.08247 Y26.95581
G01 X25.07589 Y26.94855
G01 X25.02849 Y26.89081
G01 X25.01760 Y26.87451
G01 X24.98239 Y26.80864
G01 X24.97820 Y26.79975
G01 X24.97490 Y26.79053
G01 X24.95321 Y26.71903
G01 X24.95082 Y26.70953
G01 X24.94940 Y26.69983
G01 X24.94206 Y26.62549
G01 X24.94157 Y26.61568
G01 X24.94160 Y21.53126
G01 X24.82849 Y21.44912
G01 X24.82037 Y21.44251
G01 X24.81297 Y21.43512
G01 X24.70106 Y21.31084
G01 X24.69448 Y21.30271
G01 X24.68877 Y21.29392
G01 X24.60515 Y21.14909
G01 X24.60040 Y21.13975
G01 X24.59664 Y21.12999
G01 X24.54493 Y20.97094
G01 X24.54226 Y20.96080
G01 X24.54061 Y20.95046
G01 X24.52314 Y20.78415
G01 X24.52258 Y20.77371
G01 X24.52314 Y20.76324
G01 X24.54061 Y20.59692
G01 X24.54226 Y20.58658
G01 X24.54493 Y20.57645
G01 X22.84186 Y18.87320
G01 X22.83528 Y18.86594
G01 X22.78788 Y18.80820
G01 X22.78204 Y18.80030
G01 X22.77699 Y18.79190
G01 X22.74178 Y18.72603
